!!!!SEGMENT: pl-stab--10a--001-002_rodowski-aleksander--litanie-lauretane-de-b-v-m-pater-de-caelis.krn
!!!cenid: 18xx:3432
!!!COM: Rodowski, Aleksander
!!!COM-rismID: pe30009627
!!!CDT: <1790->1810
!!!CNT: Polish
!!!OPR: Litanie Lauretane de B.V.M
!!!OTL: Pater de caelis
!!!OMV: 002
!!!PDT:
!!!AGN:
!!!YEC: Copyright 2022 Narodowy Instytut Fryderyka Chopina (https://polishscores.org)
!!!YEM: License CC-BY-4.0 (https://creativecommons.org/licenses/by/4.0)
!!!SMS-siglum: PL-STAb
!!!SMS-shelfmark: 10a
!!!SMS-shelfwork: 001-002 M
!!!SMS-variant:
!!!SMS-altvar:
!!!NIFC-rismSourceID: 301050674
!!!NIFC-rismChildID: 301050674
!!!NIFC-islandoraID: pl-stab:2273
!!!URL-pdf-islandora: https://repozytorium.nifc.pl/islandora/object/pl-stab%3A2273/datastream/PDF/view
!!!URL-scan: https://polish.musicsources.pl/pl/lokalizacje/galeria/rekopisy/4397 @EN{Scan on Polish Music Sources Website} @PL{Skany w portalu Dziedzictwo Muzyki Polskiej w otwartym dostępie}
!!!IIIF:
!!!ONB-nifc: UWAGA: części Litanii: 1. Kyrie, 2. Pater de caelis, 3. Sancta Maria, 4. Mater Christi, 5. Mater amabilis, 6. Virgo prudentissima, 7. Rosa mistica, 8. Salus infirmorum, 9. Regina angelorum, 10. Agnus Dei
!!!AIN: 1 alto 1 bass 2 cor 1 organ 1 tenor 2 violn
!!!key: G
**kern	**fba	**dynam	**kern	**dynam	**kern	**dynam	**kern	**text	**kern	**text	**kern	**text	**kern	**kern	**dynam
*group4	*	*	*group3	*	*group3	*	*group2	*	*group2	*	*group2	*	*group1	*group1	*
*part8	*	*	*part7	*	*part6	*	*part5	*	*part4	*	*part3	*	*part2	*part1	*
*staff8	*	*	*staff7	*	*staff6	*	*staff5	*	*staff4	*	*staff3	*	*staff2	*staff1	*
*I"Organo	*	*	*I"Violino Secundo	*	*I"Violino Primo	*	*I"Baſso	*	*I"Tenore	*	*I"Canto	*	*I"Cornu Secundo in G.	*I"Cornu Primo in G.	*
*I'org	*	*	*I'vl 2	*	*I'vl 1	*	*I'B	*	*I'T	*	*I'S	*	*I'cor 2 in G	*I'cor 1 in G	*
*Iorgan	*	*	*Ivioln	*	*Ivioln	*	*Ibass	*	*Itenor	*	*Ialto	*	*Icor	*Icor	*
*ICklav	*	*	*ICstr	*	*ICstr	*	*ICvox	*	*ICvox	*	*ICvox	*	*ICbras	*ICbras	*
*clefF4	*	*	*clefG2	*	*clefG2	*	*clefF4	*	*clefC4	*	*clefC1	*	*clefG2	*clefG2	*
*	*	*	*	*	*	*	*	*	*	*	*	*	*ITrd3c5	*ITrd3c5	*
*k[f#]	*	*	*k[f#]	*	*k[f#]	*	*k[f#]	*	*k[f#]	*	*k[f#]	*	*k[f#]	*k[f#]	*
*G:	*	*	*G:	*	*G:	*	*G:	*	*G:	*	*G:	*	*G:	*G:	*
*M2/4	*	*	*M2/4	*	*M2/4	*	*M2/4	*	*M2/4	*	*M2/4	*	*M2/4	*M2/4	*
=1	=1	=1	=1	=1	=1	=1	=1	=1	=1	=1	=1	=1	=1	=1	=1
*2\right	*	*2\right	*2\right	*2\right	*2\right	*2\right	*2\right	*2\right	*2\right	*2\right	*2\right	*2\right	*2\right	*2\right	*2\right
*tremolo	*	*	*	*	*	*	*	*	*	*	*	*	*	*	*
!!LO:TX:t=P:problem:p=p.
!!LO:TX:t=P:problem:f=f.
!	!	!	!	!	!	!	!LO:TX:B:t=Adagio	!	!LO:TX:a:B:t=Adagio	!	!	!	!LO:TX:a:B:t=Adagio	!	!
!	!	!	!	!	!	!	!LO:TX:a:t=Solo	!	!LO:TX:a:t=Solo	!	!LO:TX:B:t=Adagio	!	!LO:TX:a:t=Solo	!LO:TX:a:B:t=Adagio	!
!	!	!	!	!	!LO:TX:a:B:t=Adagio	!	!LO:TX:a:t=25	!	!LO:TX:a:t=43	!	!LO:TX:a:t=37	!	!LO:TX:a:t=90	!LO:TX:a:t=90.	!
!LO:TX:B:t=Adagio	!	!	!LO:TX:B:t=Adagio	!	!	!	!LO:N:vis=00	!	!LO:N:vis=00	!	!LO:N:vis=00	!	!LO:N:vis=00	!LO:N:vis=00	!
8G\L	.	.	16B/LL	.	16d/LL	.	0r	.	0r	.	0r	.	0r	0r	.
.	.	.	16d/	.	16g/JJ	.	.	.	.	.	.	.	.	.	.
8G\	.	.	16B/	.	4g/	.	.	.	.	.	.	.	.	.	.
.	.	.	16d/JJ	.	.	.	.	.	.	.	.	.	.	.	.
8G\	.	.	16B/LL	.	.	.	.	.	.	.	.	.	.	.	.
.	.	.	16d/	.	.	.	.	.	.	.	.	.	.	.	.
8G\J	.	.	16f#/	.	16a/LL	.	.	.	.	.	.	.	.	.	.
.	.	.	16g/JJ	.	16b/JJ	.	.	.	.	.	.	.	.	.	.
*Xtremolo	*	*	*	*	*	*	*	*	*	*	*	*	*	*	*
=2	=2	=2	=2	=2	=2	=2	=2	=2	=2	=2	=2	=2	=2	=2	=2
8A\L	.	.	32a/LLL	.	32cc/LLL	.	.	.	.	.	.	.	.	.	.
.	.	.	32g/	.	32b/	.	.	.	.	.	.	.	.	.	.
.	.	.	32f#/	.	32a/	.	.	.	.	.	.	.	.	.	.
.	.	.	32g/JJ	.	32b/JJ	.	.	.	.	.	.	.	.	.	.
8F#\	.	.	8f#/J	.	8a/J	.	.	.	.	.	.	.	.	.	.
8D\	.	.	16d/LL	.	16f#/LL	.	.	.	.	.	.	.	.	.	.
.	.	.	16f#/	.	16a/	.	.	.	.	.	.	.	.	.	.
8F#\J	.	.	16a/	.	16cc/	.	.	.	.	.	.	.	.	.	.
.	.	.	16cc/JJ	.	16ee/JJ	.	.	.	.	.	.	.	.	.	.
=3	=3	=3	=3	=3	=3	=3	=3	=3	=3	=3	=3	=3	=3	=3	=3
!LO:TX:t=P:problem:mixed beam	!	!	!	!	!	!	!	!	!	!	!	!	!	!	!
8G\L	.	.	16cc/LL	.	16ee\LL	.	.	.	.	.	.	.	.	.	.
.	.	.	16b/	.	16dd\	.	.	.	.	.	.	.	.	.	.
8BB/	.	.	16a/	.	16cc\	.	.	.	.	.	.	.	.	.	.
.	.	.	16g/JJ	.	16b\JJ	.	.	.	.	.	.	.	.	.	.
8C/	.	.	16g/LL	.	16b\LL	.	.	.	.	.	.	.	.	.	.
.	.	.	16c/	.	16a\	.	.	.	.	.	.	.	.	.	.
8D/J	.	.	16B/	.	16g\	.	.	.	.	.	.	.	.	.	.
.	.	.	16A/JJ	.	16f#\JJ	.	.	.	.	.	.	.	.	.	.
=4	=4	=4	=4	=4	=4	=4	=4	=4	=4	=4	=4	=4	=4	=4	=4
8GG/	.	.	16c/LL	.	16a/LL	.	.	.	.	.	.	.	.	.	.
.	.	.	16B/J	.	16g/J	.	.	.	.	.	.	.	.	.	.
8r	.	.	8B/J	.	8g/J	.	.	.	.	.	.	.	.	.	.
4C/	x 3	.	16r	.	16r	.	.	.	.	.	.	.	.	.	.
.	.	.	16a\LL	.	16ff#\LL	.	.	.	.	.	.	.	.	.	.
.	.	.	16b\	.	16gg\	.	.	.	.	.	.	.	.	.	.
.	.	.	16cc\JJ	.	16ee\JJ	.	.	.	.	.	.	.	.	.	.
=5	=5	=5	=5	=5	=5	=5	=5	=5	=5	=5	=5	=5	=5	=5	=5
!LO:TX:t=P:problem:mixed beam	!	!	!	!	!	!	!LO:N:vis=00	!	!LO:N:vis=00	!	!LO:N:vis=00	!	!LO:N:vis=00	!LO:N:vis=00	!
8D\L	.	.	16cc/LL	.	16ee\LL	.	0r	.	0r	.	0r	.	0r	0r	.
.	.	.	16b/	.	16dd\	.	.	.	.	.	.	.	.	.	.
8D\	.	.	16a/	.	16cc\	.	.	.	.	.	.	.	.	.	.
.	.	.	16g/JJ	.	16b\JJ	.	.	.	.	.	.	.	.	.	.
8DD/	.	.	16f#/LL	.	16dd\LL	.	.	.	.	.	.	.	.	.	.
.	.	.	16e/	.	16cc\	.	.	.	.	.	.	.	.	.	.
8DD/J	.	.	16d/	.	16b\	.	.	.	.	.	.	.	.	.	.
.	.	.	16c/JJ	.	16a\JJ	.	.	.	.	.	.	.	.	.	.
=6	=6	=6	=6	=6	=6	=6	=6	=6	=6	=6	=6	=6	=6	=6	=6
!LO:TX:t=P:problem:mixed beam	!	!	!	!	!	!	!	!	!	!	!	!	!	!	!
8GG/L	.	.	32d/LLL	.	32b/LLL	.	.	.	.	.	.	.	.	.	.
.	.	.	32c/	.	32a/	.	.	.	.	.	.	.	.	.	.
.	.	.	32B/	.	32g/	.	.	.	.	.	.	.	.	.	.
.	.	.	32c/JJJ	.	32a/JJJ	.	.	.	.	.	.	.	.	.	.
16G\L	.	.	16B/LL	.	16g/LL	.	.	.	.	.	.	.	.	.	.
16GG/JJ	.	.	16G/JJ	.	16G/JJ	.	.	.	.	.	.	.	.	.	.
8GG/	.	.	8G/	.	8G/	.	.	.	.	.	.	.	.	.	.
8r	.	.	8r	.	8r	.	.	.	.	.	.	.	.	.	.
!	!	!	!LO:LB:g=original	!	!LO:LB:g=original	!	!	!	!	!	!	!	!	!	!
=7	=7	=7	=7	=7	=7	=7	=7	=7	=7	=7	=7	=7	=7	=7	=7
!LO:TX:t=P:problem:mixed beam	!	!	!	!	!	!	!	!	!	!	!	!	!	!	!
8GG/L	.	.	32B/LLL	.	8.g/L	.	.	.	.	.	.	.	.	.	.
.	.	.	32d/	.	.	.	.	.	.	.	.	.	.	.	.
.	.	.	32B/	.	.	.	.	.	.	.	.	.	.	.	.
.	.	.	32d/JJJ	.	.	.	.	.	.	.	.	.	.	.	.
8G\	.	.	32B/LLL	.	.	.	.	.	.	.	.	.	.	.	.
.	.	.	32d/	.	.	.	.	.	.	.	.	.	.	.	.
.	.	.	32f#/	.	32a/LL	.	.	.	.	.	.	.	.	.	.
.	.	.	32g/JJJ	.	32b/JJJ	.	.	.	.	.	.	.	.	.	.
8G\	6 4	.	16e/LL	.	16cc/LL	.	.	.	.	.	.	.	.	.	.
.	.	.	16c/	.	16a/	.	.	.	.	.	.	.	.	.	.
8G\J	7 2	.	16f#/	.	16dd/	.	.	.	.	.	.	.	.	.	.
.	.	.	16a/JJ	.	16cc/JJ	.	.	.	.	.	.	.	.	.	.
=8	=8	=8	=8	=8	=8	=8	=8	=8	=8	=8	=8	=8	=8	=8	=8
!LO:TX:t=P:problem:mixed beam	!	!	!	!	!	!	!	!	!	!	!	!	!	!	!
8GG/L	.	.	8.g/L	.	8.b\L	.	.	.	.	.	.	.	.	.	.
8G\	.	.	.	.	.	.	.	.	.	.	.	.	.	.	.
.	.	.	32a/LL	.	32cc\LL	.	.	.	.	.	.	.	.	.	.
.	.	.	32b/JJJ	.	32dd\JJJ	.	.	.	.	.	.	.	.	.	.
8G\	6 4	.	16cc/LL	.	16ee\LL	.	.	.	.	.	.	.	.	.	.
.	.	.	16b/	.	16gg\	.	.	.	.	.	.	.	.	.	.
8G\J	7 2	.	16a/	.	16ff#\	.	.	.	.	.	.	.	.	.	.
.	.	.	16cc/JJ	.	16aa\JJ	.	.	.	.	.	.	.	.	.	.
=9	=9	=9	=9	=9	=9	=9	=9	=9	=9	=9	=9	=9	=9	=9	=9
!	!	!	!	!	!	!	!LO:N:vis=00	!	!LO:N:vis=00	!	!LO:N:vis=00	!	!LO:N:vis=00	!LO:N:vis=00	!
8G\	8 3	.	16r	.	8gg\L	.	0r	.	0r	.	0r	.	0r	0r	.
.	.	.	16bLL 16d/	.	.	.	.	.	.	.	.	.	.	.	.
8r	.	.	16b 16d/	.	32gg\LL	.	.	.	.	.	.	.	.	.	.
.	.	.	.	.	32aa\	.	.	.	.	.	.	.	.	.	.
.	.	.	16bJJ 16d/	.	32bb\	.	.	.	.	.	.	.	.	.	.
.	.	.	.	.	32aa\JJJ	.	.	.	.	.	.	.	.	.	.
8G\	.	.	16r	.	32gg\LLL	.	.	.	.	.	.	.	.	.	.
.	.	.	.	.	32ff#\	.	.	.	.	.	.	.	.	.	.
.	.	.	16bLL 16d/	.	32ee\	.	.	.	.	.	.	.	.	.	.
.	.	.	.	.	32dd\JJJ	.	.	.	.	.	.	.	.	.	.
8r	.	.	16b 16d/	.	32cc\LLL	.	.	.	.	.	.	.	.	.	.
.	.	.	.	.	32b\	.	.	.	.	.	.	.	.	.	.
.	.	.	16bJJ 16d/	.	32a\	.	.	.	.	.	.	.	.	.	.
.	.	.	.	.	32g\JJJ	.	.	.	.	.	.	.	.	.	.
=10	=10	=10	=10	=10	=10	=10	=10	=10	=10	=10	=10	=10	=10	=10	=10
8A\	x 3	.	16r	.	16dd\LL	.	.	.	.	.	.	.	.	.	.
.	.	.	16ccLL 16d/	.	16cc\J	.	.	.	.	.	.	.	.	.	.
8r	.	.	16cc 16d/	.	8cc\J	.	.	.	.	.	.	.	.	.	.
.	.	.	16ccJJ 16d/	.	.	.	.	.	.	.	.	.	.	.	.
8A\	.	.	16r	.	32cc\LLL	.	.	.	.	.	.	.	.	.	.
.	.	.	.	.	32dd\	.	.	.	.	.	.	.	.	.	.
.	.	.	16ccLL 16d/	.	32ee\	.	.	.	.	.	.	.	.	.	.
.	.	.	.	.	32dd\JJJ	.	.	.	.	.	.	.	.	.	.
8r	.	.	16cc 16d/	.	32cc\LLL	.	.	.	.	.	.	.	.	.	.
.	.	.	.	.	32b\	.	.	.	.	.	.	.	.	.	.
.	.	.	16ccJJ 16d/	.	32a\	.	.	.	.	.	.	.	.	.	.
.	.	.	.	.	32g\JJJ	.	.	.	.	.	.	.	.	.	.
!LO:LB:g=original	!	!	!	!	!	!	!	!	!	!	!	!	!	!	!
=11	=11	=11	=11	=11	=11	=11	=11	=11	=11	=11	=11	=11	=11	=11	=11
!	!	!	!	!	!LO:TX:t=P:problem:mixed beam	!	!	!	!	!	!	!	!	!	!
8F#\	.	.	16r	.	16g/LL	.	.	.	.	.	.	.	.	.	.
.	.	.	16ccLL 16d/	.	16f#/J	.	.	.	.	.	.	.	.	.	.
8r	.	.	16cc 16d/	.	8aa\J	.	.	.	.	.	.	.	.	.	.
.	.	.	16ccJJ 16d/	.	.	.	.	.	.	.	.	.	.	.	.
8F#\	.	.	16r	.	32aa\LLL	.	.	.	.	.	.	.	.	.	.
.	.	.	.	.	32gg\	.	.	.	.	.	.	.	.	.	.
.	.	.	16ccLL 16d/	.	32ff#\	.	.	.	.	.	.	.	.	.	.
.	.	.	.	.	32ee\JJJ	.	.	.	.	.	.	.	.	.	.
8r	.	.	16cc 16d/	.	32dd\LLL	.	.	.	.	.	.	.	.	.	.
.	.	.	.	.	32cc\	.	.	.	.	.	.	.	.	.	.
.	.	.	16ccJJ 16d/	.	32b\	.	.	.	.	.	.	.	.	.	.
.	.	.	.	.	32cc\JJJ	.	.	.	.	.	.	.	.	.	.
=12	=12	=12	=12	=12	=12	=12	=12	=12	=12	=12	=12	=12	=12	=12	=12
8G\	.	.	16r	.	16ee\LL	.	.	.	.	.	.	.	.	.	.
.	.	.	16bLL 16d/	.	16dd\J	.	.	.	.	.	.	.	.	.	.
8r	.	.	16b 16d/	.	8b\J	.	.	.	.	.	.	.	.	.	.
.	.	.	16bJJ 16d/	.	.	.	.	.	.	.	.	.	.	.	.
8G\	.	.	16r	.	32b\LLL	.	.	.	.	.	.	.	.	.	.
.	.	.	.	.	32g\	.	.	.	.	.	.	.	.	.	.
.	.	.	16bLL 16d/	.	32a\	.	.	.	.	.	.	.	.	.	.
.	.	.	.	.	32b\JJJ	.	.	.	.	.	.	.	.	.	.
8r	.	.	16b 16d/	.	32cc\LLL	.	.	.	.	.	.	.	.	.	.
.	.	.	.	.	32dd\	.	.	.	.	.	.	.	.	.	.
.	.	.	16bJJ 16d/	.	32ee\	.	.	.	.	.	.	.	.	.	.
.	.	.	.	.	32ff#\JJJ	.	.	.	.	.	.	.	.	.	.
!	!	!	!LO:LB:g=original	!	!LO:LB:g=original	!	!	!	!	!	!	!	!	!	!
=13	=13	=13	=13	=13	=13	=13	=13	=13	=13	=13	=13	=13	=13	=13	=13
!	!	!	!	!	!	!	!LO:N:vis=00	!	!LO:N:vis=00	!	!LO:N:vis=00	!	!LO:N:vis=00	!LO:N:vis=00	!
8G\	.	.	32g/LLL	.	4gg\	.	0r	.	0r	.	0r	.	0r	0r	.
.	.	.	32d/	.	.	.	.	.	.	.	.	.	.	.	.
.	.	.	32B/	.	.	.	.	.	.	.	.	.	.	.	.
.	.	.	32d/JJJ	.	.	.	.	.	.	.	.	.	.	.	.
8r	.	.	32B/LLL	.	.	.	.	.	.	.	.	.	.	.	.
.	.	.	32d/	.	.	.	.	.	.	.	.	.	.	.	.
.	.	.	32B/	.	.	.	.	.	.	.	.	.	.	.	.
.	.	.	32d/JJJ	.	.	.	.	.	.	.	.	.	.	.	.
.	.	.	.	.	8qqaa/	.	.	.	.	.	.	.	.	.	.
*	*	*	*tremolo	*	*	*	*	*	*	*	*	*	*	*	*
!	!	!	!LO:TX:t=P:problem:t. 13-14 - rytm	!	!	!	!	!	!	!	!	!	!	!	!
8A\	.	.	32c/LLL	.	32gg\LLL	.	.	.	.	.	.	.	.	.	.
.	.	.	32d/	.	32ff#\	.	.	.	.	.	.	.	.	.	.
.	.	.	32c/	.	32gg\	.	.	.	.	.	.	.	.	.	.
.	.	.	32d/	.	32aa\JJJ	.	.	.	.	.	.	.	.	.	.
8r	.	.	32c/	.	32gg\LLL	.	.	.	.	.	.	.	.	.	.
.	.	.	32d/	.	32ff#\	.	.	.	.	.	.	.	.	.	.
.	.	.	32c/	.	32ee\	.	.	.	.	.	.	.	.	.	.
.	.	.	32d/JJJ	.	32dd\JJJ	.	.	.	.	.	.	.	.	.	.
=14	=14	=14	=14	=14	=14	=14	=14	=14	=14	=14	=14	=14	=14	=14	=14
8G\	.	.	32B/LLL	.	16gg\LL	.	.	.	.	.	.	.	.	.	.
.	.	.	32d/	.	.	.	.	.	.	.	.	.	.	.	.
.	.	.	32B/	.	16bb\J	.	.	.	.	.	.	.	.	.	.
.	.	.	32d/	.	.	.	.	.	.	.	.	.	.	.	.
8r	.	.	32B/	.	8.ddd\J	.	.	.	.	.	.	.	.	.	.
.	.	.	32d/	.	.	.	.	.	.	.	.	.	.	.	.
.	.	.	32B/	.	.	.	.	.	.	.	.	.	.	.	.
.	.	.	32d/JJJ	.	.	.	.	.	.	.	.	.	.	.	.
8D\	.	.	32c/LLL	.	.	.	.	.	.	.	.	.	.	.	.
.	.	.	32d/	.	.	.	.	.	.	.	.	.	.	.	.
.	.	.	32c/	.	16aa\LL	.	.	.	.	.	.	.	.	.	.
.	.	.	32d/	.	.	.	.	.	.	.	.	.	.	.	.
8r	.	.	32c/	.	16bb\JJ	.	.	.	.	.	.	.	.	.	.
.	.	.	32d/	.	.	.	.	.	.	.	.	.	.	.	.
.	.	.	32c/	.	64ddd\LLLL	.	.	.	.	.	.	.	.	.	.
.	.	.	.	.	64ccc\	.	.	.	.	.	.	.	.	.	.
.	.	.	32d/JJJ	.	64bb\	.	.	.	.	.	.	.	.	.	.
.	.	.	.	.	64aa\JJJJ	.	.	.	.	.	.	.	.	.	.
*	*	*	*Xtremolo	*	*	*	*	*	*	*	*	*	*	*	*
=15	=15	=15	=15	=15	=15	=15	=15	=15	=15	=15	=15	=15	=15	=15	=15
8G\	.	.	32g/LLL	.	4gg\	.	.	.	.	.	.	.	.	.	.
.	.	.	32d/	.	.	.	.	.	.	.	.	.	.	.	.
.	.	.	32B/	.	.	.	.	.	.	.	.	.	.	.	.
.	.	.	32d/JJJ	.	.	.	.	.	.	.	.	.	.	.	.
8r	.	.	32B/LLL	.	.	.	.	.	.	.	.	.	.	.	.
.	.	.	32d/	.	.	.	.	.	.	.	.	.	.	.	.
.	.	.	32B/	.	.	.	.	.	.	.	.	.	.	.	.
.	.	.	32d/JJJ	.	.	.	.	.	.	.	.	.	.	.	.
.	.	.	.	.	8qqaa/	.	.	.	.	.	.	.	.	.	.
*	*	*	*tremolo	*	*	*	*	*	*	*	*	*	*	*	*
!	!	!	!LO:TX:t=P:problem:t. 15-16 - rytm	!	!	!	!	!	!	!	!	!	!	!	!
8A\	.	.	32c/LLL	.	32gg\LLL	.	.	.	.	.	.	.	.	.	.
.	.	.	32d/	.	32ff#\	.	.	.	.	.	.	.	.	.	.
.	.	.	32c/	.	32gg\	.	.	.	.	.	.	.	.	.	.
.	.	.	32d/	.	32aa\JJJ	.	.	.	.	.	.	.	.	.	.
8r	.	.	32c/	.	32gg\LLL	.	.	.	.	.	.	.	.	.	.
.	.	.	32d/	.	32ff#\	.	.	.	.	.	.	.	.	.	.
.	.	.	32c/	.	32ee\	.	.	.	.	.	.	.	.	.	.
.	.	.	32d/JJJ	.	32dd\JJJ	.	.	.	.	.	.	.	.	.	.
=16	=16	=16	=16	=16	=16	=16	=16	=16	=16	=16	=16	=16	=16	=16	=16
8G\	.	.	32B/LLL	.	16gg\LL	.	.	.	.	.	.	.	.	.	.
.	.	.	32d/	.	.	.	.	.	.	.	.	.	.	.	.
.	.	.	32B/	.	16bb\J	.	.	.	.	.	.	.	.	.	.
.	.	.	32d/	.	.	.	.	.	.	.	.	.	.	.	.
8r	.	.	32B/	.	8.ddd\J	.	.	.	.	.	.	.	.	.	.
.	.	.	32d/	.	.	.	.	.	.	.	.	.	.	.	.
.	.	.	32B/	.	.	.	.	.	.	.	.	.	.	.	.
.	.	.	32d/JJJ	.	.	.	.	.	.	.	.	.	.	.	.
8D\	.	.	32c/LLL	.	.	.	.	.	.	.	.	.	.	.	.
.	.	.	32d/	.	.	.	.	.	.	.	.	.	.	.	.
.	.	.	32c/	.	16aa\LL	.	.	.	.	.	.	.	.	.	.
.	.	.	32d/	.	.	.	.	.	.	.	.	.	.	.	.
8r	.	.	32c/	.	16bb\JJ	.	.	.	.	.	.	.	.	.	.
.	.	.	32d/	.	.	.	.	.	.	.	.	.	.	.	.
.	.	.	32c/	.	64ddd\LLLL	.	.	.	.	.	.	.	.	.	.
.	.	.	.	.	64ccc\	.	.	.	.	.	.	.	.	.	.
.	.	.	32d/JJJ	.	64bb\	.	.	.	.	.	.	.	.	.	.
.	.	.	.	.	64aa\JJJJ	.	.	.	.	.	.	.	.	.	.
*	*	*	*Xtremolo	*	*	*	*	*	*	*	*	*	*	*	*
=17	=17	=17	=17	=17	=17	=17	=17	=17	=17	=17	=17	=17	=17	=17	=17
!	!	!	!	!	!	!	!LO:N:vis=00	!	!LO:N:vis=00	!	!LO:N:vis=00	!	!LO:N:vis=00	!LO:N:vis=00	!
16BB/LL	6 3	.	32B/LLL	.	16gg\LL	.	0r	.	0r	.	0r	.	0r	0r	.
.	.	.	32d/	.	.	.	.	.	.	.	.	.	.	.	.
16BB/	.	.	32g/	.	16ffn\J	.	.	.	.	.	.	.	.	.	.
.	.	.	32d/JJJ	.	.	.	.	.	.	.	.	.	.	.	.
*	*	*	*rep	*	*	*	*	*	*	*	*	*	*	*	*
16BB/	.	.	32B/LLL	.	8.ff\J	.	.	.	.	.	.	.	.	.	.
.	.	.	32d/	.	.	.	.	.	.	.	.	.	.	.	.
16BB/JJ	.	.	32g/	.	.	.	.	.	.	.	.	.	.	.	.
.	.	.	32d/JJJ	.	.	.	.	.	.	.	.	.	.	.	.
*tremolo	*	*	*Xrep	*	*	*	*	*	*	*	*	*	*	*	*
16BB/LL	x n5	.	32B/LLL	.	.	.	.	.	.	.	.	.	.	.	.
.	.	.	32d/	.	.	.	.	.	.	.	.	.	.	.	.
16BB/	.	.	32fn/	.	32gg\LLL	.	.	.	.	.	.	.	.	.	.
.	.	.	32d/JJJ	.	32aa\JJJ	.	.	.	.	.	.	.	.	.	.
*	*	*	*rep	*	*	*	*	*	*	*	*	*	*	*	*
16BB/	.	.	32B/LLL	.	16gg\LL	.	.	.	.	.	.	.	.	.	.
.	.	.	32d/	.	.	.	.	.	.	.	.	.	.	.	.
16BB/JJ	.	.	32f/	.	16ffn\JJ	.	.	.	.	.	.	.	.	.	.
.	.	.	32d/JJJ	.	.	.	.	.	.	.	.	.	.	.	.
*	*	*	*Xrep	*	*	*	*	*	*	*	*	*	*	*	*
!	!	!	!	!	!LO:TX:b:rj:t=Volti Subito	!	!	!	!	!	!	!	!	!	!
!	!	!	!	!	!LO:PB:g=original	!	!	!	!	!	!	!	!	!	!
=18	=18	=18	=18	=18	=18	=18	=18	=18	=18	=18	=18	=18	=18	=18	=18
!	!	!	!	!	!LO:SIC:v:o=16ff#\LL	!	!	!	!	!	!	!	!	!	!
16C/LL	x 3	.	32c/LLL	.	16ffn\LL	.	.	.	.	.	.	.	.	.	.
.	.	.	32e/	.	.	.	.	.	.	.	.	.	.	.	.
16C/	.	.	32g/	.	16ee\J	.	.	.	.	.	.	.	.	.	.
.	.	.	32e/JJJ	.	.	.	.	.	.	.	.	.	.	.	.
*	*	*	*rep	*	*	*	*	*	*	*	*	*	*	*	*
16C/	.	.	32c/LLL	.	8.ee\J	.	.	.	.	.	.	.	.	.	.
.	.	.	32e/	.	.	.	.	.	.	.	.	.	.	.	.
16C/JJ	.	.	32g/	.	.	.	.	.	.	.	.	.	.	.	.
.	.	.	32e/JJJ	.	.	.	.	.	.	.	.	.	.	.	.
*	*	*	*Xrep	*	*	*	*	*	*	*	*	*	*	*	*
16C/LL	x 6	.	32c/LLL	.	.	.	.	.	.	.	.	.	.	.	.
.	.	.	32e/	.	.	.	.	.	.	.	.	.	.	.	.
16C/	.	.	32a/	.	32ff#X\LLL	.	.	.	.	.	.	.	.	.	.
.	.	.	32e/JJJ	.	32gg\JJJ	.	.	.	.	.	.	.	.	.	.
*	*	*	*rep	*	*	*	*	*	*	*	*	*	*	*	*
16C/	.	.	32c/LLL	.	32ff#\LLL	.	.	.	.	.	.	.	.	.	.
.	.	.	32e/	.	32ee\	.	.	.	.	.	.	.	.	.	.
16C/JJ	.	.	32a/	.	32dd\	.	.	.	.	.	.	.	.	.	.
.	.	.	32e/JJJ	.	32cc\JJJ	.	.	.	.	.	.	.	.	.	.
*Xtremolo	*	*	*Xrep	*	*	*	*	*	*	*	*	*	*	*	*
!	!	!	!LO:LB:g=original	!	!	!	!	!	!	!	!	!	!	!	!
=19	=19	=19	=19	=19	=19	=19	=19	=19	=19	=19	=19	=19	=19	=19	=19
8D\	6 4	.	16r	.	8.dd\L	.	.	.	.	.	.	.	.	.	.
.	.	.	16bLL 16g/	.	.	.	.	.	.	.	.	.	.	.	.
8r	.	.	16b 16g/	.	.	.	.	.	.	.	.	.	.	.	.
.	.	.	16bJJ 16g/	.	16ee\Jk	.	.	.	.	.	.	.	.	.	.
*	*	*	*	*	*Xtuplet	*	*	*	*	*	*	*	*	*	*
8DD/	7 3	.	16r	.	12.g/L	.	.	.	.	.	.	.	.	.	.
.	.	.	16f#XLL 16c/	.	.	.	.	.	.	.	.	.	.	.	.
8r	.	.	16f# 16c/	.	24a/K	.	.	.	.	.	.	.	.	.	.
.	.	.	.	.	12aT/J	.	.	.	.	.	.	.	.	.	.
.	.	.	16f#JJ 16c/	.	.	.	.	.	.	.	.	.	.	.	.
=20	=20	=20	=20	=20	=20	=20	=20	=20	=20	=20	=20	=20	=20	=20	=20
*tremolo	*	*	*	*	*	*	*	*	*	*	*	*	*	*	*
16BB/LL	6 3	.	32B/LLL	.	16gg\LL	.	.	.	.	.	.	.	.	.	.
.	.	.	32d/	.	.	.	.	.	.	.	.	.	.	.	.
16BB/	.	.	32g/	.	16ffn\J	.	.	.	.	.	.	.	.	.	.
.	.	.	32d/JJJ	.	.	.	.	.	.	.	.	.	.	.	.
*	*	*	*rep	*	*	*	*	*	*	*	*	*	*	*	*
16BB/	.	.	32B/LLL	.	8.ff\J	.	.	.	.	.	.	.	.	.	.
.	.	.	32d/	.	.	.	.	.	.	.	.	.	.	.	.
16BB/JJ	.	.	32g/	.	.	.	.	.	.	.	.	.	.	.	.
.	.	.	32d/JJJ	.	.	.	.	.	.	.	.	.	.	.	.
*	*	*	*Xrep	*	*	*	*	*	*	*	*	*	*	*	*
16BB/LL	x n5	.	32B/LLL	.	.	.	.	.	.	.	.	.	.	.	.
.	.	.	32d/	.	.	.	.	.	.	.	.	.	.	.	.
16BB/	.	.	32fn/	.	32gg\LLL	.	.	.	.	.	.	.	.	.	.
.	.	.	32d/JJJ	.	32aa\JJJ	.	.	.	.	.	.	.	.	.	.
*	*	*	*rep	*	*	*	*	*	*	*	*	*	*	*	*
16BB/	.	.	32B/LLL	.	16gg\LL	.	.	.	.	.	.	.	.	.	.
.	.	.	32d/	.	.	.	.	.	.	.	.	.	.	.	.
16BB/JJ	.	.	32f/	.	16ffn\JJ	.	.	.	.	.	.	.	.	.	.
.	.	.	32d/JJJ	.	.	.	.	.	.	.	.	.	.	.	.
*	*	*	*Xrep	*	*	*	*	*	*	*	*	*	*	*	*
=21	=21	=21	=21	=21	=21	=21	=21	=21	=21	=21	=21	=21	=21	=21	=21
!	!	!	!	!	!LO:SIC:v:o=16ff#\LL	!	!LO:N:vis=00	!	!LO:N:vis=00	!	!LO:N:vis=00	!	!LO:N:vis=00	!LO:N:vis=00	!
16C/LL	x 3	.	32c/LLL	.	16ffn\LL	.	0r	.	0r	.	0r	.	0r	0r	.
.	.	.	32e/	.	.	.	.	.	.	.	.	.	.	.	.
16C/	.	.	32g/	.	16ee\	.	.	.	.	.	.	.	.	.	.
.	.	.	32e/JJJ	.	.	.	.	.	.	.	.	.	.	.	.
*	*	*	*rep	*	*	*	*	*	*	*	*	*	*	*	*
16C/	.	.	32c/LLL	.	8.ee\JJ	.	.	.	.	.	.	.	.	.	.
.	.	.	32e/	.	.	.	.	.	.	.	.	.	.	.	.
16C/JJ	.	.	32g/	.	.	.	.	.	.	.	.	.	.	.	.
.	.	.	32e/JJJ	.	.	.	.	.	.	.	.	.	.	.	.
*	*	*	*Xrep	*	*	*	*	*	*	*	*	*	*	*	*
16C/LL	.	.	32c/LLL	.	.	.	.	.	.	.	.	.	.	.	.
.	.	.	32e/	.	.	.	.	.	.	.	.	.	.	.	.
16C/	.	.	32a/	.	32ff#X\LLL	.	.	.	.	.	.	.	.	.	.
.	.	.	32e/JJJ	.	32gg\JJJ	.	.	.	.	.	.	.	.	.	.
*	*	*	*rep	*	*	*	*	*	*	*	*	*	*	*	*
16C/	.	.	32c/LLL	.	32ff#\LLL	.	.	.	.	.	.	.	.	.	.
.	.	.	32e/	.	32ee\	.	.	.	.	.	.	.	.	.	.
16C/JJ	.	.	32a/	.	32dd\	.	.	.	.	.	.	.	.	.	.
.	.	.	32e/JJJ	.	32cc\JJJ	.	.	.	.	.	.	.	.	.	.
*Xtremolo	*	*	*Xrep	*	*	*	*	*	*	*	*	*	*	*	*
!LO:LB:g=original	!	!	!	!	!	!	!	!	!	!	!	!	!	!	!
=22	=22	=22	=22	=22	=22	=22	=22	=22	=22	=22	=22	=22	=22	=22	=22
8D\	.	.	16r	.	32b\LLL	.	.	.	.	.	.	.	.	.	.
.	.	.	.	.	32cc\	.	.	.	.	.	.	.	.	.	.
.	.	.	16bLL 16g/	.	32cc#X\	.	.	.	.	.	.	.	.	.	.
.	.	.	.	.	32dd\JJJ	.	.	.	.	.	.	.	.	.	.
8r	.	.	16b 16g/	.	32dd#X\LLL	.	.	.	.	.	.	.	.	.	.
.	.	.	.	.	32ee\	.	.	.	.	.	.	.	.	.	.
.	.	.	16bJJ 16g/	.	32ccn\	.	.	.	.	.	.	.	.	.	.
.	.	.	.	.	32a\JJJ	.	.	.	.	.	.	.	.	.	.
8DD/	.	.	16r	.	8g/L	.	.	.	.	.	.	.	.	.	.
.	.	.	16f#XLL 16c/	.	.	.	.	.	.	.	.	.	.	.	.
8r	.	.	16f# 16c/	.	8aT/J	.	.	.	.	.	.	.	.	.	.
.	.	.	16f#JJ 16c/	.	.	.	.	.	.	.	.	.	.	.	.
=23	=23	=23	=23	=23	=23	=23	=23	=23	=23	=23	=23	=23	=23	=23	=23
8GG/	.	.	32g/LLL	.	8g/	.	.	.	.	.	.	.	.	.	.
.	.	.	32d/	.	.	.	.	.	.	.	.	.	.	.	.
.	.	.	32B/	.	.	.	.	.	.	.	.	.	.	.	.
.	.	.	32d/JJJ	.	.	.	.	.	.	.	.	.	.	.	.
8r	.	.	32B/LLL	.	8r	.	.	.	.	.	.	.	.	.	.
.	.	.	32d/	.	.	.	.	.	.	.	.	.	.	.	.
.	.	.	32B/	.	.	.	.	.	.	.	.	.	.	.	.
.	.	.	32d/JJJ	.	.	.	.	.	.	.	.	.	.	.	.
!	!	!	!	!	!LO:N:vis=16	!	!	!	!	!	!	!	!	!	!
8D\	.	.	16r	.	32r	.	.	.	.	.	.	.	.	.	.
.	.	.	.	.	32dd\LLL	.	.	.	.	.	.	.	.	.	.
.	.	.	16dLL 16c/	.	32cc#X\	.	.	.	.	.	.	.	.	.	.
.	.	.	.	.	32dd\JJJ	.	.	.	.	.	.	.	.	.	.
8r	.	.	16f# 16c/	.	32ee\LLL	.	.	.	.	.	.	.	.	.	.
.	.	.	.	.	32dd\	.	.	.	.	.	.	.	.	.	.
.	.	.	16aJJ 16c/	.	32a\	.	.	.	.	.	.	.	.	.	.
.	.	.	.	.	32ccn\JJJ	.	.	.	.	.	.	.	.	.	.
!	!	!	!LO:TX:b:rj:t=Verte Cito	!	!	!	!	!	!	!	!	!	!	!	!
!	!	!	!LO:PB:g=original	!	!LO:LB:g=original	!	!	!	!	!	!	!	!	!	!
=24	=24	=24	=24	=24	=24	=24	=24	=24	=24	=24	=24	=24	=24	=24	=24
8G\	.	.	32g/LLL	.	8b\	.	.	.	.	.	.	.	.	.	.
.	.	.	32d/	.	.	.	.	.	.	.	.	.	.	.	.
.	.	.	32B/	.	.	.	.	.	.	.	.	.	.	.	.
.	.	.	32d/JJJ	.	.	.	.	.	.	.	.	.	.	.	.
8r	.	.	32B/LLL	.	8r	.	.	.	.	.	.	.	.	.	.
.	.	.	32d/	.	.	.	.	.	.	.	.	.	.	.	.
.	.	.	32B/	.	.	.	.	.	.	.	.	.	.	.	.
.	.	.	32d/JJJ	.	.	.	.	.	.	.	.	.	.	.	.
!	!	!	!	!	!LO:N:vis=16	!	!	!	!	!	!	!	!	!	!
8D\	.	.	16r	.	32r	.	.	.	.	.	.	.	.	.	.
.	.	.	.	.	32dd\LLL	.	.	.	.	.	.	.	.	.	.
.	.	.	16dLL 16c/	.	32cc#X\	.	.	.	.	.	.	.	.	.	.
.	.	.	.	.	32dd\JJJ	.	.	.	.	.	.	.	.	.	.
!	!	!	!	!	!LO:TX:t=P:problem:mixed beam	!	!	!	!	!	!	!	!	!	!
8r	.	.	16f# 16c/	.	32ee\LLL	.	.	.	.	.	.	.	.	.	.
.	.	.	.	.	32dd\	.	.	.	.	.	.	.	.	.	.
.	.	.	16aJJ 16c/	.	32f#/	.	.	.	.	.	.	.	.	.	.
.	.	.	.	.	32a/JJJ	.	.	.	.	.	.	.	.	.	.
=25	=25	=25	=25	=25	=25	=25	=25	=25	=25	=25	=25	=25	=25	=25	=25
!LO:TX:t=P:problem:mixed beam	!	!	!	!	!	!	!	!	!LO:N:vis=00	!	!LO:N:vis=00	!	!LO:N:vis=00	!LO:N:vis=00	!
8G\L	.	.	8g/L	.	8g/L	.	2r	.	0r	.	0r	.	0r	0r	.
8GG/	.	.	8b 8d 8G/	.	8gg 8b 8d 8G/	.	.	.	.	.	.	.	.	.	.
8GG/J	.	.	8bJ 8d 8G/	.	8ggJ 8b 8d 8G/	.	.	.	.	.	.	.	.	.	.
8r	.	.	8r	.	8r	.	.	.	.	.	.	.	.	.	.
=26	=26	=26	=26	=26	=26	=26	=26	=26	=26	=26	=26	=26	=26	=26	=26
*	*	*	*	*	*	*below	*	*	*	*	*	*	*	*	*
8G\	.	p	16r	.	16r	.	16D\LL	Pa-	.	.	.	.	.	.	.
!	!	!	!	!LO:DY:rj:t=p	!	!LO:DY:rj	!	!	!	!	!	!	!	!	!
.	.	.	16d/LL	p	16b/LL	p	16G\JJ	.	.	.	.	.	.	.	.
8r	.	.	16d/	.	16b/	.	4G\	-ter	.	.	.	.	.	.	.
.	.	.	16B/JJ	.	16g/JJ	.	.	.	.	.	.	.	.	.	.
8GG/	.	.	16r	.	16r	.	.	.	.	.	.	.	.	.	.
.	.	.	16B/LL	.	16g/LL	.	.	.	.	.	.	.	.	.	.
8r	.	.	16c/	.	16a/	.	16A\LL	de	.	.	.	.	.	.	.
.	.	.	16d/JJ	.	16b/JJ	.	16B\JJ	.	.	.	.	.	.	.	.
=27	=27	=27	=27	=27	=27	=27	=27	=27	=27	=27	=27	=27	=27	=27	=27
8D\	.	.	16r	.	16r	.	32c\LLL	coe-	.	.	.	.	.	.	.
.	.	.	.	.	.	.	32B\	.	.	.	.	.	.	.	.
.	.	.	16c/LL	.	16a/LL	.	32A\	.	.	.	.	.	.	.	.
.	.	.	.	.	.	.	32B\JJJ	.	.	.	.	.	.	.	.
8r	.	.	16c/	.	16a/	.	8A\	-lis	.	.	.	.	.	.	.
.	.	.	16A/JJ	.	16f#/JJ	.	.	.	.	.	.	.	.	.	.
8DD/	.	.	16r	.	16r	.	16r	.	.	.	.	.	.	.	.
.	.	.	16A/LL	.	16f#/LL	.	16A\	Pa-	.	.	.	.	.	.	.
8r	.	.	16c/	.	16a/	.	16c\	-ter	.	.	.	.	.	.	.
.	.	.	16e/JJ	.	16cc/JJ	.	16e\	de	.	.	.	.	.	.	.
=28	=28	=28	=28	=28	=28	=28	=28	=28	=28	=28	=28	=28	=28	=28	=28
!LO:TX:t=P:problem:mixed beam	!	!	!	!	!	!	!	!	!	!	!	!	!	!	!
8G\L	.	.	16e/LL	.	16cc/LL	.	16e\LL	coe-	.	.	.	.	.	.	.
.	.	.	16d/	.	16b/	.	16d\JJ	.	.	.	.	.	.	.	.
8BB/	.	.	16c/	.	16a/	.	16c\	-lis	.	.	.	.	.	.	.
.	.	.	16B/JJ	.	16g/JJ	.	16B\	de	.	.	.	.	.	.	.
8C/	.	.	16b/LL	.	16dd\LL	.	16B\LL	coe-	.	.	.	.	.	.	.
.	.	.	16a/	.	16cc\	.	16A\JJ	.	.	.	.	.	.	.	.
8D/J	.	.	16g/	.	16b\	.	16G\LL	-lis	.	.	.	.	.	.	.
.	.	.	16f#/JJ	.	16a\JJ	.	16F#\JJ	.	.	.	.	.	.	.	.
!	!	!	!	!	!	!	!LO:LB:g=original	!	!	!	!	!	!	!	!
=29	=29	=29	=29	=29	=29	=29	=29	=29	=29	=29	=29	=29	=29	=29	=29
!	!	!	!	!	!	!	!	!	!LO:N:vis=00	!	!LO:N:vis=00	!	!LO:N:vis=00	!LO:N:vis=00	!
8G\	.	.	16a/LL	.	16cc\LL	.	16A\LL	De-	0r	.	0r	.	0r	0r	.
.	.	.	16g/J	.	16b\J	.	16G\JJ	.	.	.	.	.	.	.	.
8r	.	.	8g/J	.	8b\J	.	16G\	-us	.	.	.	.	.	.	.
.	.	.	.	.	.	.	16r	.	.	.	.	.	.	.	.
8F#\	.	.	16r	.	16r	.	16F#\LL	Pa-	.	.	.	.	.	.	.
.	.	.	16A/LL	.	16f#/LL	.	16A\JJ	.	.	.	.	.	.	.	.
8r	.	.	16c/	.	16a/	.	16c\	-ter	.	.	.	.	.	.	.
.	.	.	16e/JJ	.	16cc/JJ	.	16e\	de	.	.	.	.	.	.	.
!	!	!	!LO:LB:g=original	!	!	!	!	!	!	!	!	!	!	!	!
=30	=30	=30	=30	=30	=30	=30	=30	=30	=30	=30	=30	=30	=30	=30	=30
!LO:TX:t=P:problem:mixed beam	!	!	!	!	!	!	!	!	!	!	!	!	!	!	!
8G\L	.	.	16e/LL	.	16cc/LL	.	16e\LL	coe-	.	.	.	.	.	.	.
.	.	.	16d/	.	16b/	.	16d\JJ	.	.	.	.	.	.	.	.
8BB/	.	.	16c/	.	16a/	.	16c\	-lis	.	.	.	.	.	.	.
*	*	*	*	*	*	*	*	*ij	*	*	*	*	*	*	*
.	.	.	16B/JJ	.	16g/JJ	.	16B\	de	.	.	.	.	.	.	.
8C/	.	.	16d/LL	.	16b/LL	.	16.d\LL	coe-	.	.	.	.	.	.	.
.	.	.	16c/	.	16a/	.	.	.	.	.	.	.	.	.	.
.	.	.	.	.	.	.	32c\JJk	.	.	.	.	.	.	.	.
8D/J	.	.	16B/	.	16g/	.	16.B\LL	-lis	.	.	.	.	.	.	.
*	*	*	*	*	*	*	*	*Xij	*	*	*	*	*	*	*
.	.	.	16A/JJ	.	16f#/JJ	.	.	.	.	.	.	.	.	.	.
.	.	.	.	.	.	.	32A\JJk	.	.	.	.	.	.	.	.
!	!	!	!	!	!LO:LB:g=original	!	!	!	!	!	!	!	!	!	!
=31	=31	=31	=31	=31	=31	=31	=31	=31	=31	=31	=31	=31	=31	=31	=31
!LO:TX:t=P:problem:mixed beam	!	!	!	!LO:DY:rj	!	!	!	!	!	!	!	!	!	!	!
8GG/L	.	.	8B/L	f	8g/L	f	32B\LLL	De-	.	.	.	.	.	.	.
.	.	.	.	.	.	.	32A\	.	.	.	.	.	.	.	.
.	.	.	.	.	.	.	32G\	.	.	.	.	.	.	.	.
.	.	.	.	.	.	.	32A\JJJ	.	.	.	.	.	.	.	.
8G\	.	.	8b 8d 8G/	.	8gg 8b 8d 8G/	.	8G\	-us	.	.	.	.	.	.	.
8GG/J	.	.	8bJ 8d 8G/	.	8ggJ 8b 8d 8G/	.	4r	.	.	.	.	.	.	.	.
8r	.	.	8r	.	8r	.	.	.	.	.	.	.	.	.	.
=32	=32	=32	=32	=32	=32	=32	=32	=32	=32	=32	=32	=32	=32	=32	=32
!LO:TX:t=P:problem:mixed beam	!	!	!	!	!	!	!	!	!	!	!	!	!	!	!
16GG/LL	5 3	.	16B/LL	.	16B/LL	.	8.G\	mi-	.	.	.	.	.	.	.
16G\	.	.	16d/	.	16d/	.	.	.	.	.	.	.	.	.	.
16G\	.	.	16B/	.	16g/	.	.	.	.	.	.	.	.	.	.
16G\JJ	.	.	16d/JJ	.	32f#/L	.	32A\LLL	-se-	.	.	.	.	.	.	.
.	.	.	.	.	32g/JJJ	.	32B\JJJ	.	.	.	.	.	.	.	.
*tremolo	*	*	*	*	*	*	*	*	*	*	*	*	*	*	*
16G\LL	6 4	.	16c/LL	.	16a/LL	.	16.c\LL	-re-	.	.	.	.	.	.	.
16G\	7	.	16A/	.	16f#/	.	.	.	.	.	.	.	.	.	.
.	.	.	.	.	.	.	32A\K	.	.	.	.	.	.	.	.
16G\	.	.	16.d/	.	16b/	.	16.d\	-re	.	.	.	.	.	.	.
16G\JJ	.	.	.	.	16a/JJ	.	.	.	.	.	.	.	.	.	.
.	.	.	32c/JJk	.	.	.	32c\JJk	.	.	.	.	.	.	.	.
*Xtremolo	*	*	*	*	*	*	*	*	*	*	*	*	*	*	*
!LO:LB:g=original	!	!	!	!	!	!	!LO:LB:g=original	!	!	!	!	!	!	!	!
=33	=33	=33	=33	=33	=33	=33	=33	=33	=33	=33	=33	=33	=33	=33	=33
*	*	*	*	*	*	*	*	*	*	*	*	*	*	*	*
!LO:TX:t=P:problem:mixed beam	!	!	!	!	!	!	!	!	!LO:N:vis=00	!	!LO:N:vis=00	!	!LO:N:vis=00	!LO:N:vis=00	!
16GG/LL	.	.	8c/L	.	8a/	f	8c\	no-	0r	.	0r	.	0r	0r	.
16G\	.	.	.	.	.	.	.	.	.	.	.	.	.	.	.
16G\	.	.	8B/J	.	32b/LLL	.	8B\	-bis	.	.	.	.	.	.	.
.	.	.	.	.	32g/	.	.	.	.	.	.	.	.	.	.
16G\JJ	.	.	.	.	32a/	.	.	.	.	.	.	.	.	.	.
.	.	.	.	.	32b/JJJ	.	.	.	.	.	.	.	.	.	.
*tremolo	*	*	*	*	*	*	*	*	*	*	*	*	*	*	*
16G\LL	.	.	4r	.	32cc\LLL	.	4r	.	.	.	.	.	.	.	.
.	.	.	.	.	32dd\	.	.	.	.	.	.	.	.	.	.
16G\	.	.	.	.	32ee\	.	.	.	.	.	.	.	.	.	.
.	.	.	.	.	32ff#\JJJ	.	.	.	.	.	.	.	.	.	.
16G\	.	.	.	.	32gg\LLL	.	.	.	.	.	.	.	.	.	.
.	.	.	.	.	32dd\	.	.	.	.	.	.	.	.	.	.
16G\JJ	.	.	.	.	32b\	.	.	.	.	.	.	.	.	.	.
.	.	.	.	.	32g\JJJ	.	.	.	.	.	.	.	.	.	.
*Xtremolo	*	*	*	*	*	*	*	*	*	*	*	*	*	*	*
=34	=34	=34	=34	=34	=34	=34	=34	=34	=34	=34	=34	=34	=34	=34	=34
*	*	*	*	*	*	*	*	*ij	*	*	*	*	*	*	*
!LO:TX:t=P:problem:mixed beam	!	!	!	!	!	!	!	!	!	!	!	!	!	!	!
16GG/LL	.	.	16B/LL	.	8.g/L	p	8.B\	mi-	.	.	.	.	.	.	.
16G\	.	.	16d/	.	.	.	.	.	.	.	.	.	.	.	.
16G\	.	.	16B/	.	.	.	.	.	.	.	.	.	.	.	.
16G\JJ	.	.	32c/L	.	32a/LL	.	32c\LLL	-se-	.	.	.	.	.	.	.
.	.	.	32d/JJJ	.	32b/JJJ	.	32d\JJJ	.	.	.	.	.	.	.	.
*tremolo	*	*	*	*	*	*	*	*	*	*	*	*	*	*	*
16G\LL	6 4	.	16e/LL	.	16.cc/LL	.	16.e\LL	-re-	.	.	.	.	.	.	.
16G\	7	.	16c/	.	.	.	.	.	.	.	.	.	.	.	.
.	.	.	.	.	32a/K	.	32c\K	.	.	.	.	.	.	.	.
16G\	.	.	16d/	.	16b/	.	16d\	-re	.	.	.	.	.	.	.
16G\JJ	.	.	16e/JJ	.	16cc/JJ	.	16e\JJ	.	.	.	.	.	.	.	.
*Xtremolo	*	*	*	*	*	*	*	*	*	*	*	*	*	*	*
=35	=35	=35	=35	=35	=35	=35	=35	=35	=35	=35	=35	=35	=35	=35	=35
!LO:TX:t=P:problem:mixed beam	!	!	!	!	!	!	!	!	!	!	!	!	!	!	!
16GG/LL	.	.	8e/L	.	8cc\	.	8e\	no-	.	.	.	.	.	.	.
16G\	.	.	.	.	.	.	.	.	.	.	.	.	.	.	.
!	!	!	!	!	!	!LO:DY:rj	!	!	!	!	!	!	!	!	!
16G\	.	.	8d/J	.	32.dd\LLL	f	8d\	-bis	.	.	.	.	.	.	.
*	*	*	*	*	*	*	*	*Xij	*	*	*	*	*	*	*
.	.	.	.	.	64b\K	.	.	.	.	.	.	.	.	.	.
16G\JJ	.	.	.	.	32cc\	.	.	.	.	.	.	.	.	.	.
.	.	.	.	.	32dd\JJJ	.	.	.	.	.	.	.	.	.	.
8G\	.	.	4r	.	32ee\LLL	.	4r	.	.	.	.	.	.	.	.
.	.	.	.	.	32ff#\	.	.	.	.	.	.	.	.	.	.
.	.	.	.	.	32gg\	.	.	.	.	.	.	.	.	.	.
.	.	.	.	.	32aa\JJJ	.	.	.	.	.	.	.	.	.	.
8r	.	.	.	.	32bb\LLL	.	.	.	.	.	.	.	.	.	.
.	.	.	.	.	32gg\	.	.	.	.	.	.	.	.	.	.
.	.	.	.	.	32dd\	.	.	.	.	.	.	.	.	.	.
.	.	.	.	.	32b\JJJ	.	.	.	.	.	.	.	.	.	.
=36	=36	=36	=36	=36	=36	=36	=36	=36	=36	=36	=36	=36	=36	=36	=36
8r	.	.	16d/LL	.	16b/LL	p	16d\LL	mi-	.	.	.	.	.	.	.
.	.	.	16c#X/J	.	16a#X/J	.	16c#X\JJ	.	.	.	.	.	.	.	.
4F#\	5 3	.	8.cn/J	.	8.an/J	.	8.cn\	-se-	.	.	.	.	.	.	.
.	.	.	16B/LL	.	16g/LL	.	16B\LL	-re-	.	.	.	.	.	.	.
16.G\LL	x 3	.	16d/	.	16.b/	.	16.d\	.	.	.	.	.	.	.	.
.	.	.	16B/JJ	.	.	.	.	.	.	.	.	.	.	.	.
32C#X\JJk	.	.	.	.	32g/JJk	.	32B\JJk	-re	.	.	.	.	.	.	.
!	!	!	!	!	!LO:LB:g=original	!	!	!	!	!	!	!	!	!	!
=37	=37	=37	=37	=37	=37	=37	=37	=37	=37	=37	=37	=37	=37	=37	=37
!LO:TX:t=P:problem:mixed beam	!	!	!	!	!	!	!	!	!LO:N:vis=00	!	!	!	!LO:N:vis=00	!LO:N:vis=00	!
8D\L	6 4	.	32c/LLL	.	32a/LLL	.	32c\LLL	no-	0r	.	2r	.	0r	0r	.
.	.	.	32B/	.	32g/	.	32B\	.	.	.	.	.	.	.	.
.	.	.	32A/	.	32f#/	.	32A\	.	.	.	.	.	.	.	.
.	.	.	32B/JJJ	.	32g/JJJ	.	32B\JJ	.	.	.	.	.	.	.	.
16DD/L	.	.	16A/LL	.	8f#/L	.	8A\J	-bis	.	.	.	.	.	.	.
16D\JJ	5 3	.	16d/	.	.	.	.	.	.	.	.	.	.	.	.
!	!	!	!	!	!LO:N:vis=8	!	!	!	!	!	!	!	!	!	!
8D\	.	.	16d/JJ	.	16bL 16d/	.	4r	.	.	.	.	.	.	.	.
!	!	!	!	!	!LO:N:vis=8	!	!	!	!	!	!	!	!	!	!
.	.	.	16r	.	16bJJ 16d/	.	.	.	.	.	.	.	.	.	.
8r	.	.	8r	.	8r	.	.	.	.	.	.	.	.	.	.
!	!	!	!LO:LB:g=original	!	!	!	!	!	!	!	!	!	!	!	!
=38	=38	=38	=38	=38	=38	=38	=38	=38	=38	=38	=38	=38	=38	=38	=38
!	!	!	!	!	!	!	!LO:TX:a:t=12.	!	!	!	!LO:TX:a:t=Solo	!	!	!	!
!	!	!	!	!	!	!LO:DY:t=f.p	!LO:N:vis=00	!	!	!	!	!	!	!	!
8D\	5 #	.	32d/LLL	fp	32dd/LLL	fp	0r	.	.	.	8.a\L	Fi-	.	.	.
.	.	.	32f#/	.	32a/	.	.	.	.	.	.	.	.	.	.
.	.	.	32f#/	.	32a/	.	.	.	.	.	.	.	.	.	.
.	.	.	32f#/JJJ	.	32a/JJJ	.	.	.	.	.	.	.	.	.	.
*	*	*	*tremolo	*	*	*	*	*	*	*	*	*	*	*	*
!	!	!	!LO:TX:t=P:problem:rytm	!	!	!	!	!	!	!	!	!	!	!	!
8r	.	.	32f#/LLL	.	32a/LLL	.	.	.	.	.	.	.	.	.	.
.	.	.	32f#/	.	32a/	.	.	.	.	.	.	.	.	.	.
.	.	.	32f#/	.	32a/	.	.	.	.	.	32b\LL	.	.	.	.
.	.	.	32f#/JJJ	.	32a/JJJ	.	.	.	.	.	32cc#X\JJJ	.	.	.	.
*	*	*	*Xtremolo	*	*	*	*	*	*	*	*	*	*	*	*
!	!	!	!	!	!	!LO:DY:t=fp.	!	!	!	!	!	!	!	!	!
16D\	.	.	32d/LLL	fp	32dd/LLL	fp	.	.	.	.	32dd\LLL	-li	.	.	.
.	.	.	32f#/	.	32a/	.	.	.	.	.	32ee\	.	.	.	.
16r	.	.	32f#/	.	32a/	.	.	.	.	.	32ff#\	.	.	.	.
.	.	.	32f#/JJJ	.	32a/JJJ	.	.	.	.	.	32ee\JJJ	.	.	.	.
*	*	*	*rep	*	*	*	*	*	*	*	*	*	*	*	*
!	!	!	!	!	!	!LO:DY:t=fp.	!	!	!	!	!	!	!	!	!
16D\	.	.	32d/LLL	.	32dd/LLL	fp	.	.	.	.	32dd\LLL	Re-	.	.	.
.	.	.	32f#/	.	32a/	.	.	.	.	.	32cc#X\	.	.	.	.
16r	.	.	32f#/	.	32a/	.	.	.	.	.	32b\	.	.	.	.
.	.	.	32f#/JJJ	.	32a/JJJ	.	.	.	.	.	32a\JJJ	.	.	.	.
*	*	*	*Xrep	*	*	*	*	*	*	*	*	*	*	*	*
=39	=39	=39	=39	=39	=39	=39	=39	=39	=39	=39	=39	=39	=39	=39	=39
!	!	!	!	!	!	!LO:DY:t=fp.	!	!	!	!	!	!	!	!	!
8C#X/	x 6	.	32e/LLL	fp	32ee/LLL	fp	.	.	.	.	16a\LL	-dem-	.	.	.
.	.	.	32g/	.	32a/	.	.	.	.	.	.	.	.	.	.
.	.	.	32g/	.	32a/	.	.	.	.	.	16g\JJ	.	.	.	.
.	.	.	32g/JJJ	.	32a/JJJ	.	.	.	.	.	.	.	.	.	.
*	*	*	*tremolo	*	*	*	*	*	*	*	*	*	*	*	*
!	!	!	!LO:TX:t=P:problem:rytm	!	!	!	!	!	!	!	!	!	!	!	!
8r	.	.	32g/LLL	.	32a/LLL	.	.	.	.	.	8g\	-ptor	.	.	.
.	.	.	32g/	.	32a/	.	.	.	.	.	.	.	.	.	.
.	.	.	32g/	.	32a/	.	.	.	.	.	.	.	.	.	.
.	.	.	32g/JJJ	.	32a/JJJ	.	.	.	.	.	.	.	.	.	.
*	*	*	*Xtremolo	*	*	*	*	*	*	*	*	*	*	*	*
!	!	!	!	!	!	!LO:DY:t=fp.	!	!	!	!	!	!	!	!	!
16C#X/	.	.	32e/LLL	fp	32ee/LLL	fp	.	.	.	.	4r	.	.	.	.
.	.	.	32g/	.	32a/	.	.	.	.	.	.	.	.	.	.
16r	.	.	32g/	.	32a/	.	.	.	.	.	.	.	.	.	.
.	.	.	32g/JJJ	.	32a/JJJ	.	.	.	.	.	.	.	.	.	.
!	!	!	!	!	!	!LO:DY:t=fp.	!	!	!	!	!	!	!	!	!
16C#/	.	.	32e/LLL	.	32ee/LLL	fp	.	.	.	.	.	.	.	.	.
.	.	.	32g/	.	32a/	.	.	.	.	.	.	.	.	.	.
16r	.	.	32g/	.	32a/	.	.	.	.	.	.	.	.	.	.
.	.	.	32g/JJJ	.	32a/JJJ	.	.	.	.	.	.	.	.	.	.
=40	=40	=40	=40	=40	=40	=40	=40	=40	=40	=40	=40	=40	=40	=40	=40
!LO:TX:t=P:problem:t. 40-41 zapisane repetycją	!	!	!	!	!	!LO:DY:t=fp.	!	!	!	!	!	!	!	!	!
8D\yy	5 #	.	32d/LLL	fp	32dd/LLL	fp	.	.	.	.	8.a\L	Mun-	.	.	.
.	.	.	32f#/	.	32a/	.	.	.	.	.	.	.	.	.	.
.	.	.	32f#/	.	32a/	.	.	.	.	.	.	.	.	.	.
.	.	.	32f#/JJJ	.	32a/JJJ	.	.	.	.	.	.	.	.	.	.
*	*	*	*tremolo	*	*tremolo	*	*	*	*	*	*	*	*	*	*
!	!	!	!LO:TX:t=P:problem:rytm	!	!LO:TX:t=P:problem:rytm	!	!	!	!	!	!	!	!	!	!
8ryy	.	.	32f#/LLL	.	32a/LLL	.	.	.	.	.	.	.	.	.	.
.	.	.	32f#/	.	32a/	.	.	.	.	.	.	.	.	.	.
.	.	.	32f#/	.	32a/	.	.	.	.	.	32b\LL	.	.	.	.
.	.	.	32f#/JJJ	.	32a/JJJ	.	.	.	.	.	32cc#X\JJJ	.	.	.	.
*	*	*	*Xtremolo	*	*Xtremolo	*	*	*	*	*	*	*	*	*	*
16D\yy	.	.	32d/LLL	fp	32dd/LLL	fp	.	.	.	.	32dd\LLL	.	.	.	.
.	.	.	32f#/	.	32a/	.	.	.	.	.	32ee\	.	.	.	.
16ryy	.	.	32f#/	.	32a/	.	.	.	.	.	32ff#\	.	.	.	.
.	.	.	32f#/JJJ	.	32a/JJJ	.	.	.	.	.	32ee\JJJ	.	.	.	.
*	*	*	*rep	*	*rep	*	*	*	*	*	*	*	*	*	*
16D\yy	.	.	32d/LLL	.	32a/LLL	.	.	.	.	.	32dd\LLL	-di	.	.	.
.	.	.	32f#/	.	32a/	.	.	.	.	.	32cc#X\	.	.	.	.
16ryy	.	.	32f#/	.	32a/	.	.	.	.	.	32b\	.	.	.	.
.	.	.	32f#/JJJ	.	32a/JJJ	.	.	.	.	.	32a\JJJ	.	.	.	.
*	*	*	*Xrep	*	*Xrep	*	*	*	*	*	*	*	*	*	*
!	!	!	!	!	!	!	!	!	!	!	!LO:LB:g=original	!	!	!	!
=41	=41	=41	=41	=41	=41	=41	=41	=41	=41	=41	=41	=41	=41	=41	=41
!	!	!	!	!	!	!	!	!	!LO:N:vis=0	!	!	!	!LO:N:vis=00	!LO:N:vis=00	!
8C#X/yy	x 6	.	32e/LLL	fp	32ee/LLL	fp	.	.	1r	.	16a\LL	De-	0r	0r	.
.	.	.	32g/	.	32a/	.	.	.	.	.	.	.	.	.	.
.	.	.	32g/	.	32a/	.	.	.	.	.	16g\JJ	.	.	.	.
.	.	.	32g/JJJ	.	32a/JJJ	.	.	.	.	.	.	.	.	.	.
*	*	*	*tremolo	*	*tremolo	*	*	*	*	*	*	*	*	*	*
!	!	!	!LO:TX:t=P:problem:rytm	!	!LO:TX:t=P:problem:rytm	!	!	!	!	!	!	!	!	!	!
8ryy	.	.	32g/LLL	.	32a/LLL	.	.	.	.	.	8g\	-us	.	.	.
.	.	.	32g/	.	32a/	.	.	.	.	.	.	.	.	.	.
.	.	.	32g/	.	32a/	.	.	.	.	.	.	.	.	.	.
.	.	.	32g/JJJ	.	32a/JJJ	.	.	.	.	.	.	.	.	.	.
*	*	*	*Xtremolo	*	*Xtremolo	*	*	*	*	*	*	*	*	*	*
!	!	!	!	!	!LO:LB:g=orginal	!LO:DY:t=fp.	!	!	!	!	!	!	!	!	!
16C#X/yy	.	.	32e/LLL	fp	32ee/LLL	fp	.	.	.	.	4r	.	.	.	.
.	.	.	32g/	.	32a/	.	.	.	.	.	.	.	.	.	.
16ryy	.	.	32g/	.	32a/	.	.	.	.	.	.	.	.	.	.
.	.	.	32g/JJJ	.	32a/JJJ	.	.	.	.	.	.	.	.	.	.
*	*	*	*	*	*rep	*	*	*	*	*	*	*	*	*	*
16C#/yy	.	.	32e/LLL	.	32a/LLL	.	.	.	.	.	.	.	.	.	.
.	.	.	32g/	.	32a/	.	.	.	.	.	.	.	.	.	.
16ryy	.	.	32g/	.	32a/	.	.	.	.	.	.	.	.	.	.
.	.	.	32g/JJJ	.	32a/JJJ	.	.	.	.	.	.	.	.	.	.
*	*	*	*	*	*Xrep	*	*	*	*	*	*	*	*	*	*
=42	=42	=42	=42	=42	=42	=42	=42	=42	=42	=42	=42	=42	=42	=42	=42
!LO:TX:t=P:problem:mixed beam	!	!	!	!	!	!	!LO:N:vis=00	!	!	!	!	!	!	!	!
8D\L	.	.	16b/KL	.	16dd\KL	.	0r	.	.	.	8.dd\	mi-	.	.	.
.	.	.	8b/	.	8dd\	.	.	.	.	.	.	.	.	.	.
8DD/J	.	.	.	.	.	.	.	.	.	.	.	.	.	.	.
.	.	.	16a/Jk	.	16cc#X\Jk	.	.	.	.	.	16cc#X\	-se-	.	.	.
8r	.	.	16g/LL	.	16b/LL	.	.	.	.	.	16b\LL	-re-	.	.	.
.	.	.	16f#/	.	16a/	.	.	.	.	.	16a\JJ	.	.	.	.
16r	.	.	16e/	.	16g/	.	.	.	.	.	16g/LL	-re	.	.	.
16G#X\	.	.	16d/JJ	.	16f#/JJ	.	.	.	.	.	16f#/JJ	.	.	.	.
!LO:LB:g=original	!	!	!LO:LB:g=original	!	!	!	!	!	!	!	!	!	!	!	!
=43	=43	=43	=43	=43	=43	=43	=43	=43	=43	=43	=43	=43	=43	=43	=43
!LO:TX:t=P:problem:mixed beam	!	!	!	!	!	!	!	!	!	!	!	!	!	!	!
8A\L	.	.	16d/LL	.	16f#/LL	.	.	.	2r	.	16f#/LL	no-	.	.	.
.	.	.	16c#X/JJ	.	16e/JJ	.	.	.	.	.	16e/JJ	.	.	.	.
8AA/	.	.	16c#/LL	.	16e/LL	.	.	.	.	.	8e/	-bis	.	.	.
.	.	.	32g#X/L	.	32g#X/L	.	.	.	.	.	.	.	.	.	.
.	.	.	32a/JJJ	.	32a/JJJ	.	.	.	.	.	.	.	.	.	.
8AA/J	.	.	8A/	.	8A/	.	.	.	.	.	4r	.	.	.	.
8r	.	.	8r	.	8r	.	.	.	.	.	.	.	.	.	.
=44	=44	=44	=44	=44	=44	=44	=44	=44	=44	=44	=44	=44	=44	=44	=44
*tremolo	*	*	*	*	*tremolo	*	*	*	*	*	*	*	*	*	*
!	!	!	!	!	!	!	!	!	!	!	!LO:N:vis=00	!	!	!	!
16A\LL	5 #	.	32c#X/LLL	.	16a/LL	.	.	.	8A\	Spi-	0r	.	.	.	.
.	.	.	32e/	.	.	.	.	.	.	.	.	.	.	.	.
16A\	.	.	32c#/	.	16a/	.	.	.	.	.	.	.	.	.	.
.	.	.	32e/JJJ	.	.	.	.	.	.	.	.	.	.	.	.
*	*	*	*rep	*	*	*	*	*	*	*	*	*	*	*	*
16A\	.	.	32c#/LLL	.	16a/	.	.	.	16A\	-ri-	.	.	.	.	.
.	.	.	32e/	.	.	.	.	.	.	.	.	.	.	.	.
16A\	.	.	32c#/	.	16a/JJ	.	.	.	16c#X\	-tus	.	.	.	.	.
.	.	.	32e/JJJ	.	.	.	.	.	.	.	.	.	.	.	.
*	*	*	*Xrep	*	*	*	*	*	*	*	*	*	*	*	*
*	*	*	*rep	*	*	*	*	*	*	*	*	*	*	*	*
16A\	.	.	32c#/LLL	.	16a/LL	.	.	.	8e\	San-	.	.	.	.	.
.	.	.	32e/	.	.	.	.	.	.	.	.	.	.	.	.
16A\	.	.	32c#/	.	16a/	.	.	.	.	.	.	.	.	.	.
.	.	.	32e/JJJ	.	.	.	.	.	.	.	.	.	.	.	.
*	*	*	*Xrep	*	*	*	*	*	*	*	*	*	*	*	*
*	*	*	*rep	*	*	*	*	*	*	*	*	*	*	*	*
16A\	.	.	32c#/LLL	.	16a/	.	.	.	32d\LLL	-cte	.	.	.	.	.
.	.	.	32e/	.	.	.	.	.	32c#\	.	.	.	.	.	.
16A\JJ	.	.	32c#/	.	16a/JJ	.	.	.	32B\	.	.	.	.	.	.
.	.	.	32e/JJJ	.	.	.	.	.	32A\JJJ	.	.	.	.	.	.
*	*	*	*Xrep	*	*Xtremolo	*	*	*	*	*	*	*	*	*	*
=45	=45	=45	=45	=45	=45	=45	=45	=45	=45	=45	=45	=45	=45	=45	=45
*	*	*	*tremolo	*	*	*	*	*	*	*	*	*	*	*	*
!	!	!	!LO:TX:t=P:problem:t. 45-46 - rytm	!	!	!	!	!	!	!	!	!	!LO:N:vis=00	!LO:N:vis=00	!
16B\LL	6 3	.	32d/LLL	.	16a/LL	.	.	.	16A/LL	De-	.	.	0r	0r	.
.	.	.	32e/	.	.	.	.	.	.	.	.	.	.	.	.
!	!	!	!	!	!	!	!	!	!LO:SIC:v:o=16G/JJ	!	!	!	!	!	!
16B\	.	.	32d/	.	16g#X/J	.	.	.	16G#/JJ	.	.	.	.	.	.
.	.	.	32e/	.	.	.	.	.	.	.	.	.	.	.	.
!	!	!	!	!	!	!	!	!	!LO:SIC:v:o=8G/	!	!	!	!	!	!
16B\	.	.	32d/	.	8g#/J	.	.	.	8G#/	-us	.	.	.	.	.
.	.	.	32e/	.	.	.	.	.	.	.	.	.	.	.	.
16B\	.	.	32d/	.	.	.	.	.	.	.	.	.	.	.	.
.	.	.	32e/JJJ	.	.	.	.	.	.	.	.	.	.	.	.
*	*	*	*rep	*	*	*	*	*	*	*	*	*	*	*	*
16B\	.	.	32d/LLL	.	16g#/LL	.	.	.	4r	.	.	.	.	.	.
.	.	.	32e/	.	.	.	.	.	.	.	.	.	.	.	.
16B\	.	.	32d/	.	16dd/JJ	.	.	.	.	.	.	.	.	.	.
.	.	.	32e/	.	.	.	.	.	.	.	.	.	.	.	.
16B\	.	.	32d/	.	32cc#X/LLL	.	.	.	.	.	.	.	.	.	.
.	.	.	32e/	.	32b/	.	.	.	.	.	.	.	.	.	.
16B\JJ	.	.	32d/	.	32a/	.	.	.	.	.	.	.	.	.	.
.	.	.	32e/JJJ	.	32g#/JJJ	.	.	.	.	.	.	.	.	.	.
*	*	*	*Xrep	*	*	*	*	*	*	*	*	*	*	*	*
=46	=46	=46	=46	=46	=46	=46	=46	=46	=46	=46	=46	=46	=46	=46	=46
!	!	!	!	!	!	!	!LO:N:vis=00	!	!	!	!	!	!	!	!
16c#X\LL	5 3	.	32c#X/LLL	.	16a/LL	.	0r	.	8A\	mi-	.	.	.	.	.
.	.	.	32e/	.	.	.	.	.	.	.	.	.	.	.	.
16c#\	.	.	32c#/	.	16gn/	.	.	.	.	.	.	.	.	.	.
.	.	.	32e/	.	.	.	.	.	.	.	.	.	.	.	.
16c#\	.	.	32c#/	.	16g/	.	.	.	32A\LLL	-se-	.	.	.	.	.
.	.	.	32e/	.	.	.	.	.	32B\	.	.	.	.	.	.
!	!	!	!	!	!	!	!	!	!LO:SIC:v:o=32c\	!	!	!	!	!	!
16c#\	.	.	32c#/	.	16g/JJ	.	.	.	32c#\	.	.	.	.	.	.
!	!	!	!	!	!	!	!	!	!LO:SIC:v:o=32d#X\JJJ	!	!	!	!	!	!
.	.	.	32e/JJJ	.	.	.	.	.	32dnX\JJJ	.	.	.	.	.	.
*	*	*	*rep	*	*	*	*	*	*	*	*	*	*	*	*
16c#\	.	.	32c#/LLL	.	16g/LL	.	.	.	32e\LLL	-re-	.	.	.	.	.
!	!	!	!	!	!	!	!	!	!LO:SIC:v:o=32d#\	!	!	!	!	!	!
.	.	.	32e/	.	.	.	.	.	32dn\	.	.	.	.	.	.
!	!	!	!	!	!	!	!	!	!LO:SIC:v:o=32c\	!	!	!	!	!	!
16c#\	.	.	32c#/	.	16g/	.	.	.	32c#\	.	.	.	.	.	.
.	.	.	32e/	.	.	.	.	.	32B\JJJ	.	.	.	.	.	.
16c#\	.	.	32c#/	.	16a/	.	.	.	32A\LLL	-re	.	.	.	.	.
.	.	.	32e/	.	.	.	.	.	32B\	.	.	.	.	.	.
16c#\JJ	.	.	32c#/	.	16g/JJ	.	.	.	32A\	.	.	.	.	.	.
.	.	.	32e/JJJ	.	.	.	.	.	32G\JJJ	.	.	.	.	.	.
*	*	*	*Xrep	*	*	*	*	*	*	*	*	*	*	*	*
*Xtremolo	*	*	*Xtremolo	*	*	*	*	*	*	*	*	*	*	*	*
!	!	!	!	!	!	!	!	!	!LO:LB:g=original	!	!	!	!	!	!
=47	=47	=47	=47	=47	=47	=47	=47	=47	=47	=47	=47	=47	=47	=47	=47
!LO:TX:t=P:problem:mixed beam	!	!	!	!	!	!	!	!	!	!	!	!	!	!	!
8d\L	x 3	.	16e/LL	.	16g/LL	.	.	.	8G/	no-	.	.	.	.	.
.	.	.	16d/J	.	16f#/J	.	.	.	.	.	.	.	.	.	.
8D/J	.	.	8d/J	.	8f#/J	.	.	.	8F#/	-bis	.	.	.	.	.
16r	.	.	16r	.	16r	.	.	.	16r	.	.	.	.	.	.
16A\LL	.	.	16a\LL	.	16a\LL	.	.	.	16A\LL	mi-	.	.	.	.	.
16B\	.	.	16b\	.	16b\	.	.	.	16B\JJ	.	.	.	.	.	.
16c#X\JJ	.	.	16cc#X\JJ	.	16cc#X\JJ	.	.	.	16c\	-se-	.	.	.	.	.
!	!	!	!	!	!LO:LB:g=original	!	!	!	!	!	!	!	!	!	!
=48	=48	=48	=48	=48	=48	=48	=48	=48	=48	=48	=48	=48	=48	=48	=48
!	!	!	!LO:N:vis=8	!	!	!	!	!	!	!	!LO:N:vis=00	!	!	!	!
8.d\L	.	.	16dd\LL	.	16dd\LL	.	.	.	8.d\	-re-	0r	.	.	.	.
.	.	.	8qqee/	.	8qqee/	.	.	.	.	.	.	.	.	.	.
!	!	!	!	!	!LO:N:vis=32	!	!	!	!	!	!	!	!	!	!
.	.	.	64dd\LL	.	64dd\LL	.	.	.	.	.	.	.	.	.	.
!	!	!	!	!	!LO:N:vis=32	!	!	!	!	!	!	!	!	!	!
.	.	.	64cc#X\	.	64cc#X\	.	.	.	.	.	.	.	.	.	.
!	!	!	!	!	!LO:N:vis=32	!	!	!	!	!	!	!	!	!	!
.	.	.	64dd\	.	64dd\	.	.	.	.	.	.	.	.	.	.
!	!	!	!	!	!LO:N:vis=32	!	!	!	!	!	!	!	!	!	!
.	.	.	64ee\JJJJ	.	64ee\JJJJ	.	.	.	.	.	.	.	.	.	.
.	.	.	16dd\LL	.	16dd\LL	.	.	.	.	.	.	.	.	.	.
16f#\Jk	.	.	16ff#\JJ	.	16ff#\JJ	.	.	.	16f#\	-re	.	.	.	.	.
4E 4EE/	7 5 #	.	16g#X/LL	.	16g#X/LL	.	.	.	8.G#X/L	no-	.	.	.	.	.
!	!	!	!	!	!LO:N:vis=32	!	!	!	!	!	!	!	!	!	!
.	.	.	64g#/LL	.	64g#/LL	.	.	.	.	.	.	.	.	.	.
!	!	!	!	!	!LO:N:vis=32	!	!	!	!	!	!	!	!	!	!
.	.	.	64f#/	.	64f#/	.	.	.	.	.	.	.	.	.	.
!	!	!	!	!	!LO:N:vis=32	!	!	!	!	!	!	!	!	!	!
.	.	.	64g#/	.	64g#/	.	.	.	.	.	.	.	.	.	.
!	!	!	!	!	!LO:N:vis=32	!	!	!	!	!	!	!	!	!	!
.	.	.	64a/JJJJ	.	64a/JJJJ	.	.	.	.	.	.	.	.	.	.
.	.	.	16g#/LL	.	16g#/LL	.	.	.	.	.	.	.	.	.	.
.	.	.	16b/JJ	.	16b/JJ	.	.	.	32A/LL	.	.	.	.	.	.
.	.	.	.	.	.	.	.	.	32B/JJJ	.	.	.	.	.	.
!	!	!	!LO:LB:g=original	!	!	!	!	!	!	!	!	!	!	!	!
=49	=49	=49	=49	=49	=49	=49	=49	=49	=49	=49	=49	=49	=49	=49	=49
!LO:TX:t=P:problem:mixed beam	!	!	!	!	!	!	!	!	!	!	!	!	!LO:N:vis=00	!LO:N:vis=00	!
8A\L	.	.	8a/L	.	8a/L	.	.	.	8A\	-bis	.	.	0r	0r	.
!	!	!	!LO:SIC:v:n=1:o=8cc 8e 8A/	!	!LO:SIC:v:n=2:o=8aa 8cc/	!	!	!	!	!	!	!	!	!	!
8AA/	.	.	8cc#	.	8cc#	.	.	.	8r	.	.	.	.	.	.
!	!	!	!LO:SIC:v:n=1:o=8ccJ 8e 8A/	!	!LO:SIC:v:n=2:o=8aaJ 8cc/	!	!	!	!	!	!	!	!	!	!
8AA/J	.	.	8cc#	.	8cc#	.	.	.	4r	.	.	.	.	.	.
8r	.	.	8r	.	8r	.	.	.	.	.	.	.	.	.	.
!	!	!	!	!	!	!	!LO:LB:g=original	!	!	!	!	!	!	!	!
=50	=50	=50	=50	=50	=50	=50	=50	=50	=50	=50	=50	=50	=50	=50	=50
8A\	.	p	32c#X/LLL	fp	32gg/LLL	fp	8.A\	San-	2r	.	.	.	.	.	.
.	.	.	32e/	.	32a 32g/	.	.	.	.	.	.	.	.	.	.
.	.	.	32e/	.	32a 32g/	.	.	.	.	.	.	.	.	.	.
.	.	.	32e/JJJ	.	32aJJJ 32g/	.	.	.	.	.	.	.	.	.	.
*	*	*	*tremolo	*	*tremolo	*	*	*	*	*	*	*	*	*	*
!	!	!	!LO:TX:t=P:problem:rytm	!	!LO:TX:t=P:problem:rytm	!	!	!	!	!	!	!	!	!	!
8r	.	.	32e/LLL	.	32aLLL 32g/	.	.	.	.	.	.	.	.	.	.
.	.	.	32e/	.	32a 32g/	.	.	.	.	.	.	.	.	.	.
.	.	.	32e/	.	32a 32g/	.	32B\LLL	-cta	.	.	.	.	.	.	.
.	.	.	32e/JJJ	.	32aJJJ 32g/	.	32c#X\JJJ	.	.	.	.	.	.	.	.
.	.	.	.	.	.	.	8qqe/	.	.	.	.	.	.	.	.
*	*	*	*Xtremolo	*	*Xtremolo	*	*	*	*	*	*	*	*	*	*
8D\	.	.	32d/LLL	fp	32ff#/LLL	fp	16d\LL	Tri-	.	.	.	.	.	.	.
.	.	.	32f#/	.	32a/	.	.	.	.	.	.	.	.	.	.
.	.	.	32f#/	.	32a/	.	16c#\JJ	.	.	.	.	.	.	.	.
.	.	.	32f#/JJJ	.	32a/JJJ	.	.	.	.	.	.	.	.	.	.
*	*	*	*tremolo	*	*tremolo	*	*	*	*	*	*	*	*	*	*
!	!	!	!LO:TX:t=P:problem:rytm	!	!LO:TX:t=P:problem:rytm	!	!	!	!	!	!	!	!	!	!
8r	.	.	32f#/LLL	.	32a/LLL	.	16B\	-ni-	.	.	.	.	.	.	.
.	.	.	32f#/	.	32a/	.	.	.	.	.	.	.	.	.	.
.	.	.	32f#/	.	32a/	.	16A\	-tas	.	.	.	.	.	.	.
.	.	.	32f#/JJJ	.	32a/JJJ	.	.	.	.	.	.	.	.	.	.
*	*	*	*Xtremolo	*	*Xtremolo	*	*	*	*	*	*	*	*	*	*
=51	=51	=51	=51	=51	=51	=51	=51	=51	=51	=51	=51	=51	=51	=51	=51
!	!	!LO:DY:t=p	!	!	!	!LO:DY:t=fp.	!	!	!	!	!	!	!	!	!
8AA/	.	p	32e/LLL	fp	32cc#X/LLL	fp	16G\LL	u-	8.A\	San-	.	.	.	.	.
.	.	.	32g/	.	32a/	.	.	.	.	.	.	.	.	.	.
.	.	.	32g/	.	32a/	.	16E\JJ	.	.	.	.	.	.	.	.
.	.	.	32g/JJJ	.	32a/JJJ	.	.	.	.	.	.	.	.	.	.
*	*	*	*tremolo	*	*tremolo	*	*	*	*	*	*	*	*	*	*
!	!	!	!LO:TX:t=P:problem:rytm	!	!LO:TX:t=P:problem:rytm	!	!	!	!	!	!	!	!	!	!
8r	.	.	32g/LLL	.	32a/LLL	.	16F#\LL	-nus	.	.	.	.	.	.	.
.	.	.	32g/	.	32a/	.	.	.	.	.	.	.	.	.	.
!	!	!	!	!	!	!	!	!	!LO:TX:t=P:problem:16B 16c# ołówkiem poprawione na 32B 32c#	!	!	!	!	!	!
!	!	!	!	!	!	!	!	!	!LO:N:vis=16	!	!	!	!	!	!
.	.	.	32g/	.	32a/	.	16G\JJ	.	32B\LLL	-cta	.	.	.	.	.
!	!	!	!	!	!	!	!	!	!LO:N:vis=16	!	!	!	!	!	!
.	.	.	32g/JJJ	.	32a/JJJ	.	.	.	32c#X\JJJ	.	.	.	.	.	.
.	.	.	.	.	.	.	.	.	8qqe/	.	.	.	.	.	.
*	*	*	*Xtremolo	*	*Xtremolo	*	*	*	*	*	*	*	*	*	*
!	!	!	!	!	!	!LO:DY:t=fp.	!	!	!	!	!	!	!	!	!
8D\	.	.	32d/LLL	fp	32dd/LLL	fp	8F#\	De-	16d\LL	Tri-	.	.	.	.	.
.	.	.	32f#/	.	32a/	.	.	.	.	.	.	.	.	.	.
.	.	.	32f#/	.	32a/	.	.	.	16c#\JJ	.	.	.	.	.	.
.	.	.	32f#/JJJ	.	32a/JJJ	.	.	.	.	.	.	.	.	.	.
*	*	*	*tremolo	*	*tremolo	*	*	*	*	*	*	*	*	*	*
!	!	!	!LO:TX:t=P:problem:rytm	!	!LO:TX:t=P:problem:rytm	!	!	!	!	!	!	!	!	!	!
8r	.	.	32f#/LLL	.	32a/LLL	.	8D\	-us	16B\	-ni-	.	.	.	.	.
.	.	.	32f#/	.	32a/	.	.	.	.	.	.	.	.	.	.
.	.	.	32f#/	.	32a/	.	.	.	16A\	-tas	.	.	.	.	.
.	.	.	32f#/JJJ	.	32a/JJJ	.	.	.	.	.	.	.	.	.	.
=52	=52	=52	=52	=52	=52	=52	=52	=52	=52	=52	=52	=52	=52	=52	=52
!	!	!	!LO:TX:t=P:problem:t. 53-53 - rytm	!	!LO:TX:t=P:problem:t. 52-53 - rytm	!	!	!	!	!	!	!	!	!	!
8A\	.	.	32c#X/LLL	.	32e/LLL	p	8A\	mi-	16G/LL	u-	8.a\	San-	.	.	.
.	.	.	32e/	.	32g/	.	.	.	.	.	.	.	.	.	.
.	.	.	32c#/	.	32e/	.	.	.	16E/JJ	.	.	.	.	.	.
.	.	.	32e/	.	32g/	.	.	.	.	.	.	.	.	.	.
8r	.	.	32c#/	.	32e/	.	8A\	-ſe-	16F#/LL	-nus	.	.	.	.	.
.	.	.	32e/	.	32g/	.	.	.	.	.	.	.	.	.	.
.	.	.	32c#/	.	32e/	.	.	.	16G/JJ	.	32b\LLL	.	.	.	.
.	.	.	32e/JJJ	.	32g/JJJ	.	.	.	.	.	32cc#X\JJJ	-cta	.	.	.
.	.	.	.	.	.	.	.	.	.	.	8qqee/	.	.	.	.
8D\	.	.	32d/LLL	.	32f#/LLL	.	8A\	-re-	8F#/	De-	16dd\LL	Tri-	.	.	.
.	.	.	32f#/	.	32a/	.	.	.	.	.	.	.	.	.	.
.	.	.	32d/	.	32f#/	.	.	.	.	.	16cc#\JJ	.	.	.	.
.	.	.	32f#/	.	32a/	.	.	.	.	.	.	.	.	.	.
8r	.	.	32d/	.	32f#/	.	8A\	-re	8D/	-us	16b\	-ni-	.	.	.
.	.	.	32f#/	.	32a/	.	.	.	.	.	.	.	.	.	.
.	.	.	32d/	.	32f#/	.	.	.	.	.	16a\	-tas	.	.	.
.	.	.	32f#/JJJ	.	32a/JJJ	.	.	.	.	.	.	.	.	.	.
!	!	!	!	!	!	!	!	!	!LO:LB:g=original	!	!	!	!	!	!
=53	=53	=53	=53	=53	=53	=53	=53	=53	=53	=53	=53	=53	=53	=53	=53
!	!	!	!	!	!	!	!	!	!	!	!	!	!LO:N:vis=00	!LO:N:vis=00	!
8C#X\	.	.	32e/LLL	.	32g/LLL	.	4A\	no-	8.A\	San-	16g/LL	u-	0r	0r	.
.	.	.	32g/	.	32a/	.	.	.	.	.	.	.	.	.	.
.	.	.	32e/	.	32g/	.	.	.	.	.	16e/JJ	.	.	.	.
.	.	.	32g/	.	32a/	.	.	.	.	.	.	.	.	.	.
8r	.	.	32e/	.	32g/	.	.	.	.	.	16f#/LL	-nus	.	.	.
.	.	.	32g/	.	32a/	.	.	.	.	.	.	.	.	.	.
!	!	!	!	!	!	!	!	!	!LO:TX:t=P:problem:16B 16c# ołówkiem poprawione na 32B 32c#	!	!	!	!	!	!
!	!	!	!	!	!	!	!	!	!LO:N:vis=16	!	!	!	!	!	!
.	.	.	32e/	.	32g/	.	.	.	32B\LLL	-cta	16g/JJ	.	.	.	.
!	!	!	!	!	!	!	!	!	!LO:N:vis=16	!	!	!	!	!	!
.	.	.	32g/JJJ	.	32a/JJJ	.	.	.	32c#X\JJJ	.	.	.	.	.	.
.	.	.	.	.	.	.	.	.	16qqe/	.	.	.	.	.	.
8D\	.	.	32d/LLL	.	32f#/LLL	.	4A\	-bis	16d\LL	Tri-	8f#/	De-	.	.	.
.	.	.	32f#/	.	32a/	.	.	.	.	.	.	.	.	.	.
.	.	.	32d/	.	32f#/	.	.	.	16c#\JJ	.	.	.	.	.	.
.	.	.	32f#/	.	32a/	.	.	.	.	.	.	.	.	.	.
8r	.	.	32d/	.	32f#/	.	.	.	16B\	-ni-	8d/	-us	.	.	.
.	.	.	32f#/	.	32a/	.	.	.	.	.	.	.	.	.	.
.	.	.	32d/	.	32f#/	.	.	.	16A\	-tas	.	.	.	.	.
.	.	.	32f#/JJJ	.	32a/JJJ	.	.	.	.	.	.	.	.	.	.
*	*	*	*Xtremolo	*	*Xtremolo	*	*	*	*	*	*	*	*	*	*
!	!	!	!	!	!	!	!LO:TX:b:rj:t=Verte Cito	!	!	!	!	!	!	!	!
!	!	!	!	!	!LO:LB:g=original	!	!LO:PB:g=original	!	!	!	!LO:LB:g=original	!	!	!	!
=54	=54	=54	=54	=54	=54	=54	=54	=54	=54	=54	=54	=54	=54	=54	=54
!LO:TX:t=P:problem:t. 54-57 zapisane repetycją	!	!	!	!	!	!	!	!	!	!	!	!	!	!	!
8A\yy	.	pyy	32c#X/LLL	.	32gg/LLL	fp	8.A\	San-	16G/LL	u-	8a\	mi-	.	.	.
.	.	.	32e/	.	32a 32g/	.	.	.	.	.	.	.	.	.	.
.	.	.	32e/	.	32a 32g/	.	.	.	16E/JJ	.	.	.	.	.	.
.	.	.	32e/JJJ	.	32aJJJ 32g/	.	.	.	.	.	.	.	.	.	.
*	*	*	*tremolo	*	*tremolo	*	*	*	*	*	*	*	*	*	*
!	!	!	!LO:TX:t=P:problem:rytm	!	!LO:TX:t=P:problem:rytm	!	!	!	!	!	!	!	!	!	!
8ryy	.	.	32e/LLL	.	32aLLL 32g/	.	.	.	16F#/LL	-nus	8a\	-se-	.	.	.
.	.	.	32e/	.	32a 32g/	.	.	.	.	.	.	.	.	.	.
.	.	.	32e/	.	32a 32g/	.	32B\LLL	-cta	16G/JJ	.	.	.	.	.	.
.	.	.	32e/JJJ	.	32aJJJ 32g/	.	32c#X\JJJ	.	.	.	.	.	.	.	.
.	.	.	.	.	.	.	16qqe/	.	.	.	.	.	.	.	.
*	*	*	*Xtremolo	*	*Xtremolo	*	*	*	*	*	*	*	*	*	*
!	!	!	!	!	!	!LO:DY:t=fp.	!	!	!	!	!	!	!	!	!
8D\yy	.	.	32d/LLL	.	32ff#/LLL	fp	16d\LL	Tri-	8F#/	De-	8a\	-re-	.	.	.
.	.	.	32f#/	.	32a/	.	.	.	.	.	.	.	.	.	.
.	.	.	32f#/	.	32a/	.	16c#\JJ	.	.	.	.	.	.	.	.
.	.	.	32f#/JJJ	.	32a/JJJ	.	.	.	.	.	.	.	.	.	.
*	*	*	*tremolo	*	*tremolo	*	*	*	*	*	*	*	*	*	*
!	!	!	!LO:TX:t=P:problem:rytm	!	!LO:TX:t=P:problem:rytm	!	!	!	!	!	!	!	!	!	!
8ryy	.	.	32f#/LLL	.	32a/LLL	.	16B\	-ni-	8D/	-us	8a\	-re	.	.	.
.	.	.	32f#/	.	32a/	.	.	.	.	.	.	.	.	.	.
.	.	.	32f#/	.	32a/	.	16A\	-tas	.	.	.	.	.	.	.
.	.	.	32f#/JJJ	.	32a/JJJ	.	.	.	.	.	.	.	.	.	.
*	*	*	*Xtremolo	*	*Xtremolo	*	*	*	*	*	*	*	*	*	*
=55	=55	=55	=55	=55	=55	=55	=55	=55	=55	=55	=55	=55	=55	=55	=55
!	!	!LO:DY:t=p	!	!	!	!LO:DY:t=fp.	!	!	!	!	!	!	!	!	!
8AA/yy	.	pyy	32e/LLL	.	32cc#X/LLL	fp	16G\LL	u-	8A\	mi-	4a\	no-	.	.	.
.	.	.	32g/	.	32a/	.	.	.	.	.	.	.	.	.	.
.	.	.	32g/	.	32a/	.	16E\JJ	.	.	.	.	.	.	.	.
.	.	.	32g/JJJ	.	32a/JJJ	.	.	.	.	.	.	.	.	.	.
*	*	*	*tremolo	*	*tremolo	*	*	*	*	*	*	*	*	*	*
!	!	!	!LO:TX:t=P:problem:rytm	!	!LO:TX:t=P:problem:rytm	!	!	!	!	!	!	!	!	!	!
8ryy	.	.	32g/LLL	.	32a/LLL	.	16F#\LL	-nus	8A\	-se-	.	.	.	.	.
.	.	.	32g/	.	32a/	.	.	.	.	.	.	.	.	.	.
.	.	.	32g/	.	32a/	.	16G\JJ	.	.	.	.	.	.	.	.
.	.	.	32g/JJJ	.	32a/JJJ	.	.	.	.	.	.	.	.	.	.
*	*	*	*Xtremolo	*	*Xtremolo	*	*	*	*	*	*	*	*	*	*
!	!	!	!LO:LB:g=original	!	!	!	!	!	!	!	!	!	!	!	!
8D\yy	.	.	32d/LLL	.	32dd/LLL	fp	8F#\	De-	8A\	-re-	4a\	-bis	.	.	.
.	.	.	32f#/	.	32a/	.	.	.	.	.	.	.	.	.	.
.	.	.	32f#/	.	32a/	.	.	.	.	.	.	.	.	.	.
.	.	.	32f#/JJJ	.	32a/JJJ	.	.	.	.	.	.	.	.	.	.
*	*	*	*tremolo	*	*tremolo	*	*	*	*	*	*	*	*	*	*
!	!	!	!LO:TX:t=P:problem:rytm	!	!LO:TX:t=P:problem:rytm	!	!	!	!	!	!	!	!	!	!
8ryy	.	.	32f#/LLL	.	32a/LLL	.	8D\	-us	8A\	-re	.	.	.	.	.
.	.	.	32f#/	.	32a/	.	.	.	.	.	.	.	.	.	.
.	.	.	32f#/	.	32a/	.	.	.	.	.	.	.	.	.	.
.	.	.	32f#/JJJ	.	32a/JJJ	.	.	.	.	.	.	.	.	.	.
=56	=56	=56	=56	=56	=56	=56	=56	=56	=56	=56	=56	=56	=56	=56	=56
!	!	!	!LO:TX:t=P:problem:t. 56-57 - rytm	!	!LO:TX:t=P:problem:t. 56-57 - rytm	!	!	!	!	!	!	!	!	!	!
8A\yy	.	.	32c#X/LLL	.	32e/LLL	p	8A\	mi-	4A\	no-	8.a\	San-	.	.	.
.	.	.	32e/	.	32g/	.	.	.	.	.	.	.	.	.	.
.	.	.	32c#/	.	32e/	.	.	.	.	.	.	.	.	.	.
.	.	.	32e/	.	32g/	.	.	.	.	.	.	.	.	.	.
8ryy	.	.	32c#/	.	32e/	.	8A\	-ſe-	.	.	.	.	.	.	.
.	.	.	32e/	.	32g/	.	.	.	.	.	.	.	.	.	.
.	.	.	32c#/	.	32e/	.	.	.	.	.	32b\LLL	-cta	.	.	.
!	!	!	!	!	!	!	!	!	!	!	!LO:SIC:v:o=32cc\JJJ	!	!	!	!
.	.	.	32e/JJJ	.	32g/JJJ	.	.	.	.	.	32cc#\JJJ	.	.	.	.
.	.	.	.	.	.	.	.	.	.	.	8qqee/	.	.	.	.
8D\yy	.	.	32d/LLL	.	32f#/LLL	.	8A\	-re-	4A\	-bis	16dd\LL	Tri-	.	.	.
.	.	.	32f#/	.	32a/	.	.	.	.	.	.	.	.	.	.
!	!	!	!	!	!	!	!	!	!	!	!LO:SIC:v:o=16cc\JJ	!	!	!	!
.	.	.	32d/	.	32f#/	.	.	.	.	.	16cc#\JJ	.	.	.	.
.	.	.	32f#/	.	32a/	.	.	.	.	.	.	.	.	.	.
8ryy	.	.	32d/	.	32f#/	.	8A\	-re	.	.	16b\	-ni-	.	.	.
.	.	.	32f#/	.	32a/	.	.	.	.	.	.	.	.	.	.
.	.	.	32d/	.	32f#/	.	.	.	.	.	16a\	-tas	.	.	.
.	.	.	32f#/JJJ	.	32a/JJJ	.	.	.	.	.	.	.	.	.	.
=57	=57	=57	=57	=57	=57	=57	=57	=57	=57	=57	=57	=57	=57	=57	=57
!	!	!	!	!	!	!	!	!	!	!	!	!	!LO:N:vis=00	!LO:N:vis=00	!
8C#X\yy	.	.	32e/LLL	.	32g/LLL	.	4A\	no-	8.A\	San-	16g/LL	u-	0r	0r	.
.	.	.	32g/	.	32a/	.	.	.	.	.	.	.	.	.	.
.	.	.	32e/	.	32g/	.	.	.	.	.	16e/JJ	.	.	.	.
.	.	.	32g/	.	32a/	.	.	.	.	.	.	.	.	.	.
8ryy	.	.	32e/	.	32g/	.	.	.	.	.	16f#/LL	-nus	.	.	.
.	.	.	32g/	.	32a/	.	.	.	.	.	.	.	.	.	.
!	!	!	!	!	!	!	!	!	!LO:TX:t=P:problem:16B 16c# ołówkiem poprawione na 32B 32c#	!	!	!	!	!	!
!	!	!	!	!	!	!	!	!	!LO:N:vis=16	!	!	!	!	!	!
.	.	.	32e/	.	32g/	.	.	.	32B\LLL	-cta	16g/JJ	.	.	.	.
!	!	!	!	!	!	!	!	!	!LO:N:vis=16	!	!	!	!	!	!
.	.	.	32g/JJJ	.	32a/JJJ	.	.	.	32c#X\JJJ	.	.	.	.	.	.
8D\yy	.	.	32d/LLL	.	32f#/LLL	.	4A\	-bis	16d\LL	Tri-	8f#/	De-	.	.	.
.	.	.	32f#/	.	32a/	.	.	.	.	.	.	.	.	.	.
.	.	.	32d/	.	32f#/	.	.	.	16A\JJ	.	.	.	.	.	.
.	.	.	32f#/	.	32a/	.	.	.	.	.	.	.	.	.	.
8ryy	.	.	32d/	.	32f#/	.	.	.	16F#/LL	-ni-	8d/	-us	.	.	.
.	.	.	32f#/	.	32a/	.	.	.	.	.	.	.	.	.	.
.	.	.	32d/	.	32f#/	.	.	.	16D/JJ	tas	.	.	.	.	.
.	.	.	32f#/JJJ	.	32a/JJJ	.	.	.	.	.	.	.	.	.	.
*	*	*	*Xtremolo	*	*Xtremolo	*	*	*	*	*	*	*	*	*	*
!LO:LB:g=original	!	!	!	!	!	!	!	!	!LO:LB:g=original	!	!	!	!	!	!
=58	=58	=58	=58	=58	=58	=58	=58	=58	=58	=58	=58	=58	=58	=58	=58
8D\	.	.	8f# 8A/	.	8dd 8d/	.	16r	.	16r	.	2r	.	.	.	.
.	.	.	.	.	.	.	16D\LL	mi-	16F#/LL	mi-	.	.	.	.	.
8r	.	.	8r	.	8r	.	16E\	.	16G/JJ	.	.	.	.	.	.
.	.	.	.	.	.	.	16F#\JJ	-ſe-	16A/	-se-	.	.	.	.	.
!	!	!	!	!	!	!	!LO:LB:g=original	!	!	!	!	!	!	!	!
4r	.	.	4r	.	4r	.	16G\LL	-re-	16B/LL	-re-	.	.	.	.	.
.	.	.	.	.	.	.	16E\JJ	.	16G/JJ	.	.	.	.	.	.
.	.	.	.	.	.	.	8F#\	-re	8A/	-re	.	.	.	.	.
!	!	!	!	!	!	!	!	!	!	!	!LO:TX:b:rj:t=Volti Subito	!	!	!	!
!	!	!	!	!	!	!	!	!	!	!	!LO:PB:g=original	!	!	!	!
=59	=59	=59	=59	=59	=59	=59	=59	=59	=59	=59	=59	=59	=59	=59	=59
8D\	.	.	8f# 8A/	.	8dd 8d/	.	2r	.	16r	.	16r	.	.	.	.
.	.	.	.	.	.	.	.	.	16F#/LL	mi-	16dd\LL	mi-	.	.	.
8r	.	.	8r	.	8r	.	.	.	16G/JJ	.	16ee\JJ	.	.	.	.
.	.	.	.	.	.	.	.	.	16A/	-se-	16ff#\	-ſe-	.	.	.
4r	.	.	4r	.	4r	.	.	.	16B\LL	-re-	16gg\LL	-re-	.	.	.
.	.	.	.	.	.	.	.	.	16c#X\JJ	.	16ee\JJ	.	.	.	.
.	.	.	.	.	.	.	.	.	8d\	-re	8ff#\	-re	.	.	.
=60	=60	=60	=60	=60	=60	=60	=60	=60	=60	=60	=60	=60	=60	=60	=60
*tremolo	*	*	*	*	*	*	*	*	*	*	*	*	*	*	*
16G\LL	.	.	8.g/L	.	8.ee\L	.	8.G\	mi-	8.B\	mi-	8.ee\	mi-	.	.	.
16G\	.	.	.	.	.	.	.	.	.	.	.	.	.	.	.
16G\	.	.	.	.	.	.	.	.	.	.	.	.	.	.	.
16G\JJ	.	.	16b/Jk	.	16gg\Jk	.	16E\	-se-	16B\	-se-	16gg\	-ſe-	.	.	.
*Xtremolo	*	*	*	*	*	*	*	*	*	*	*	*	*	*	*
!LO:TX:t=P:problem:mixed beam	!	!	!	!	!	!	!	!	!	!	!	!	!	!	!
16F#\LL	.	.	16a/LL	.	16ff#\LL	.	16F#\	-re-	16A/	-re-	16ff#\	-re-	.	.	.
16G\	.	.	16g/	.	16ee\	.	16G\	-re	16G/	-re	16ee\	-re	.	.	.
!	!	!	!	!	!	!	!LO:TX:t=P:problem:mixed beam	!	!	!	!	!	!	!	!
16A\	.	.	16f#/	.	16dd\	.	16A\LL	no-	16F#/LL	no-	16dd\LL	no-	.	.	.
16AA/JJ	.	.	16e/JJ	.	16cc#X\JJ	.	16AA/JJ	.	16E/JJ	.	16cc#X\JJ	.	.	.	.
!	!	!	!	!	!LO:LB:g=original	!	!	!	!	!	!	!	!	!	!
=61	=61	=61	=61	=61	=61	=61	=61	=61	=61	=61	=61	=61	=61	=61	=61
!	!	!	!	!	!	!	!	!	!	!	!	!	!LO:N:vis=00	!LO:N:vis=00	!
8D\	.	.	16f#/LL	.	16dd\LL	.	8D\	-bis	8F#/	-bis	8dd\	-bis	0r	0r	.
.	.	.	16d/	.	16dd\	.	.	.	.	.	.	.	.	.	.
8r	.	.	16f#/	.	16ff#\	.	8r	.	8r	.	8r	.	.	.	.
.	.	.	16a/JJ	.	16aa\JJ	.	.	.	.	.	.	.	.	.	.
16r	.	.	8f# 8A/	.	8ddd\	.	4r	.	4r	.	4r	.	.	.	.
16A'\LL	.	.	.	.	.	.	.	.	.	.	.	.	.	.	.
16F#'\	.	.	8r	.	8r	.	.	.	.	.	.	.	.	.	.
16D'\JJ	.	.	.	.	.	.	.	.	.	.	.	.	.	.	.
=62	=62	=62	=62	=62	=62	=62	=62	=62	=62	=62	=62	=62	=62	=62	=62
!	!	!	!	!LO:DY:t=fp.	!LO:TX:t=P:problem:mixed beam	!LO:DY:t=fp.	!	!	!	!	!LO:N:vis=0	!	!	!	!
8A\	x 7	.	32c#X/LLL	fp	32gg\LLL	fp	8.A\	San-	2r	.	1r	.	.	.	.
.	.	.	32e/	.	32a 32g/	.	.	.	.	.	.	.	.	.	.
.	.	.	32e/	.	32a 32g/	.	.	.	.	.	.	.	.	.	.
.	.	.	32e/JJJ	.	32aJJJ 32g/	.	.	.	.	.	.	.	.	.	.
*	*	*	*tremolo	*	*tremolo	*	*	*	*	*	*	*	*	*	*
!	!	!	!LO:TX:t=P:problem:rytm	!	!LO:TX:t=P:problem:rytm	!	!	!	!	!	!	!	!	!	!
8r	.	.	32e/LLL	.	32aLLL 32g/	.	.	.	.	.	.	.	.	.	.
.	.	.	32e/	.	32a 32g/	.	.	.	.	.	.	.	.	.	.
.	.	.	32e/	.	32a 32g/	.	32B\LLL	-cta	.	.	.	.	.	.	.
.	.	.	32e/JJJ	.	32aJJJ 32g/	.	32c#X\JJJ	.	.	.	.	.	.	.	.
.	.	.	.	.	.	.	8qqe/	.	.	.	.	.	.	.	.
*	*	*	*Xtremolo	*	*Xtremolo	*	*	*	*	*	*	*	*	*	*
!	!	!LO:DY:rj:t=p	!	!	!	!LO:DY:t=fp.	!	!	!	!	!	!	!	!	!
8D\	.	p	32d/LLL	fp	32ff#/LLL	fp	16d\LL	Tri-	.	.	.	.	.	.	.
.	.	.	32f#/	.	32a/	.	.	.	.	.	.	.	.	.	.
.	.	.	32f#/	.	32a/	.	16c#\JJ	.	.	.	.	.	.	.	.
.	.	.	32f#/JJJ	.	32a/JJJ	.	.	.	.	.	.	.	.	.	.
*	*	*	*tremolo	*	*tremolo	*	*	*	*	*	*	*	*	*	*
!	!	!	!LO:TX:t=P:problem:rytm	!	!LO:TX:t=P:problem:rytm	!	!	!	!	!	!	!	!	!	!
8r	.	.	32f#/LLL	.	32a/LLL	.	16B\	-ni-	.	.	.	.	.	.	.
.	.	.	32f#/	.	32a/	.	.	.	.	.	.	.	.	.	.
.	.	.	32f#/	.	32a/	.	16A\	-tas	.	.	.	.	.	.	.
.	.	.	32f#/JJJ	.	32a/JJJ	.	.	.	.	.	.	.	.	.	.
*	*	*	*Xtremolo	*	*Xtremolo	*	*	*	*	*	*	*	*	*	*
!	!	!	!LO:LB:g=original	!	!	!	!	!	!LO:PB:g=original	!	!	!	!	!	!
=63	=63	=63	=63	=63	=63	=63	=63	=63	=63	=63	=63	=63	=63	=63	=63
!	!	!	!	!	!	!LO:DY:t=fp.	!	!	!	!	!	!	!	!	!
8AA/	.	.	32e/LLL	fp	32cc#X/LLL	fp	16G\LL	u-	8.A\	San-	.	.	.	.	.
.	.	.	32g/	.	32a/	.	.	.	.	.	.	.	.	.	.
.	.	.	32g/	.	32a/	.	16E\JJ	.	.	.	.	.	.	.	.
.	.	.	32g/JJJ	.	32a/JJJ	.	.	.	.	.	.	.	.	.	.
*	*	*	*tremolo	*	*tremolo	*	*	*	*	*	*	*	*	*	*
!	!	!	!LO:TX:t=P:problem:rytm	!	!LO:TX:t=P:problem:rytm	!	!	!	!	!	!	!	!	!	!
8r	.	.	32g/LLL	.	32a/LLL	.	16F#\LL	-nus	.	.	.	.	.	.	.
.	.	.	32g/	.	32a/	.	.	.	.	.	.	.	.	.	.
.	.	.	32g/	.	32a/	.	16G\JJ	.	32B\LLL	-cta	.	.	.	.	.
!	!	!	!	!	!	!	!	!	!LO:SIC:v:o=32c\JJJ	!	!	!	!	!	!
.	.	.	32g/JJJ	.	32a/JJJ	.	.	.	32c#\JJJ	.	.	.	.	.	.
.	.	.	.	.	.	.	.	.	8qqe/	.	.	.	.	.	.
*	*	*	*Xtremolo	*	*Xtremolo	*	*	*	*	*	*	*	*	*	*
8D\	.	.	32d/LLL	fp	32dd/LLL	fp	8F#\	De-	16d\LL	Tri-	.	.	.	.	.
.	.	.	32f#/	.	32a/	.	.	.	.	.	.	.	.	.	.
!	!	!	!	!	!	!	!	!	!LO:SIC:v:o=16c\JJ	!	!	!	!	!	!
.	.	.	32f#/	.	32a/	.	.	.	16c#\JJ	.	.	.	.	.	.
.	.	.	32f#/JJJ	.	32a/JJJ	.	.	.	.	.	.	.	.	.	.
*	*	*	*tremolo	*	*tremolo	*	*	*	*	*	*	*	*	*	*
!	!	!	!LO:TX:t=P:problem:rytm	!	!LO:TX:t=P:problem:rytm	!	!	!	!	!	!	!	!	!	!
8r	.	.	32f#/LLL	.	32a/LLL	.	8D\	-us	16B\	-ni-	.	.	.	.	.
.	.	.	32f#/	.	32a/	.	.	.	.	.	.	.	.	.	.
.	.	.	32f#/	.	32a/	.	.	.	16A\	-tas	.	.	.	.	.
.	.	.	32f#/JJJ	.	32a/JJJ	.	.	.	.	.	.	.	.	.	.
!	!	!	!	!	!	!	!LO:LB:g=original	!	!	!	!	!	!	!	!
=64	=64	=64	=64	=64	=64	=64	=64	=64	=64	=64	=64	=64	=64	=64	=64
!	!	!	!LO:TX:t=P:problem:t. 64-65 - rytm	!	!LO:TX:t=P:problem:t. 64-65 - rytm	!LO:DY:rj	!	!	!	!	!	!	!	!	!
!	!	!	!LO:SIC:v:o=32c/LLL	!	!	!	!	!	!	!	!	!	!	!	!
8A\	.	.	4c#/	.	32e/LLL	p	8A\	mi-	16G/LL	u-	8.a\	San-	.	.	.
.	.	.	32e/	.	32g/	.	.	.	.	.	.	.	.	.	.
.	.	.	32c/	.	32e/	.	.	.	16E/JJ	.	.	.	.	.	.
.	.	.	32e/	.	32g/	.	.	.	.	.	.	.	.	.	.
8r	.	.	32c/	.	32e/	.	8A\	-ſe-	16F#/LL	-nus	.	.	.	.	.
.	.	.	32e/	.	32g/	.	.	.	.	.	.	.	.	.	.
.	.	.	32c/	.	32e/	.	.	.	16G/JJ	.	32b\LLL	-cta	.	.	.
.	.	.	32e/JJJ	.	32g/JJJ	.	.	.	.	.	32cc#X\JJJ	.	.	.	.
.	.	.	.	.	.	.	.	.	.	.	16qqee/	.	.	.	.
8D\	.	.	32d/LLL	.	32f#/LLL	.	8A\	-re-	8F#/	De-	16dd\LL	Tri-	.	.	.
.	.	.	32f#/	.	32a/	.	.	.	.	.	.	.	.	.	.
.	.	.	32d/	.	32f#/	.	.	.	.	.	16cc#\JJ	.	.	.	.
.	.	.	32f#/	.	32a/	.	.	.	.	.	.	.	.	.	.
8r	.	.	32d/	.	32f#/	.	8A\	-re	8D/	-us	16b\	-ni-	.	.	.
.	.	.	32f#/	.	32a/	.	.	.	.	.	.	.	.	.	.
.	.	.	32d/	.	32f#/	.	.	.	.	.	16a\	-tas	.	.	.
.	.	.	32f#/JJJ	.	32a/JJJ	.	.	.	.	.	.	.	.	.	.
!	!	!	!	!	!	!	!	!	!	!	!LO:LB:g=original	!	!	!	!
=65	=65	=65	=65	=65	=65	=65	=65	=65	=65	=65	=65	=65	=65	=65	=65
!	!	!	!	!	!	!	!	!	!LO:TX:t=P:problem:t. 65-66 zapisane repetycją	!	!	!	!LO:N:vis=00	!LO:N:vis=00	!
8C#X\	.	.	32e/LLL	.	32g/LLL	.	4A\	no-	8.A\yy	San-	16g/LL	[u]-	0r	0r	.
.	.	.	32g/	.	32a/	.	.	.	.	.	.	.	.	.	.
.	.	.	32e/	.	32g/	.	.	.	.	.	16e/JJ	.	.	.	.
.	.	.	32g/	.	32a/	.	.	.	.	.	.	.	.	.	.
8r	.	.	32e/	.	32g/	.	.	.	.	.	16f#/LL	-nus	.	.	.
.	.	.	32g/	.	32a/	.	.	.	.	.	.	.	.	.	.
.	.	.	32e/	.	32g/	.	.	.	32B\LLLyy	-cta	16g/JJ	.	.	.	.
!	!	!	!	!	!	!	!	!	!LO:SIC:v:o=32c\JJJyy	!	!	!	!	!	!
.	.	.	32g/JJJ	.	32a/JJJ	.	.	.	32c#\JJJyy	.	.	.	.	.	.
.	.	.	.	.	.	.	.	.	8qqe/yy	.	.	.	.	.	.
8D\	.	.	32d/LLL	.	32f#/LLL	.	4A\	-bis	16d\LLyy	Tri-	8f#/	De-	.	.	.
.	.	.	32f#/	.	32a/	.	.	.	.	.	.	.	.	.	.
!	!	!	!	!	!	!	!	!	!LO:SIC:v:o=16c\JJyy	!	!	!	!	!	!
.	.	.	32d/	.	32f#/	.	.	.	16c#\JJyy	.	.	.	.	.	.
.	.	.	32f#/	.	32a/	.	.	.	.	.	.	.	.	.	.
8r	.	.	32d/	.	32f#/	.	.	.	16B\yy	-ni-	8d/	-us	.	.	.
.	.	.	32f#/	.	32a/	.	.	.	.	.	.	.	.	.	.
.	.	.	32d/	.	32f#/	.	.	.	16A\yy	-tas	.	.	.	.	.
.	.	.	32f#/JJJ	.	32a/JJJ	.	.	.	.	.	.	.	.	.	.
*	*	*	*Xtremolo	*	*Xtremolo	*	*	*	*	*	*	*	*	*	*
=66	=66	=66	=66	=66	=66	=66	=66	=66	=66	=66	=66	=66	=66	=66	=66
!LO:TX:t=P:problem:t. 66-69 zapisane repetycją	!	!	!	!	!LO:TX:t=P:problem:mixed beam	!	!	!	!	!	!	!	!	!	!
8A\yy	x 7	.	32c#X/LLL	.	32gg\LLL	fp	8.A\	San-	16G/LLyy	u-	8a\	mi-	.	.	.
.	.	.	32e/	.	32a 32g/	.	.	.	.	.	.	.	.	.	.
.	.	.	32e/	.	32a 32g/	.	.	.	16E/JJyy	.	.	.	.	.	.
.	.	.	32e/JJJ	.	32aJJJ 32g/	.	.	.	.	.	.	.	.	.	.
*	*	*	*tremolo	*	*tremolo	*	*	*	*	*	*	*	*	*	*
!	!	!	!LO:TX:t=P:problem:rytm	!	!LO:TX:t=P:problem:rytm	!	!	!	!	!	!	!	!	!	!
8ryy	.	.	32e/LLL	.	32aLLL 32g/	.	.	.	16F#/LLyy	-nus	8a\	-se-	.	.	.
.	.	.	32e/	.	32a 32g/	.	.	.	.	.	.	.	.	.	.
.	.	.	32e/	.	32a 32g/	.	32B\LLL	-cta	16G/JJyy	.	.	.	.	.	.
.	.	.	32e/JJJ	.	32aJJJ 32g/	.	32c#X\JJJ	.	.	.	.	.	.	.	.
.	.	.	.	.	.	.	16qqe/	.	.	.	.	.	.	.	.
*	*	*	*Xtremolo	*	*Xtremolo	*	*	*	*	*	*	*	*	*	*
!	!	!LO:DY:rj:t=p	!	!	!LO:LB:g=original	!	!	!	!	!	!	!	!	!	!
8D\yy	.	pyy	32d/LLL	.	32ff#/LLL	fp	16d\LL	Tri-	8F#/yy	De-	8a\	-re-	.	.	.
.	.	.	32f#/	.	32a/	.	.	.	.	.	.	.	.	.	.
.	.	.	32f#/	.	32a/	.	16c#\JJ	.	.	.	.	.	.	.	.
.	.	.	32f#/JJJ	.	32a/JJJ	.	.	.	.	.	.	.	.	.	.
*	*	*	*tremolo	*	*tremolo	*	*	*	*	*	*	*	*	*	*
!	!	!	!LO:TX:t=P:problem:rytm	!	!LO:TX:t=P:problem:rytm	!	!	!	!	!	!	!	!	!	!
8ryy	.	.	32f#/LLL	.	32a/LLL	.	16B\	-ni-	8D/yy	-us	8a\	-re	.	.	.
.	.	.	32f#/	.	32a/	.	.	.	.	.	.	.	.	.	.
.	.	.	32f#/	.	32a/	.	16A\	-tas	.	.	.	.	.	.	.
.	.	.	32f#/JJJ	.	32a/JJJ	.	.	.	.	.	.	.	.	.	.
*	*	*	*Xtremolo	*	*Xtremolo	*	*	*	*	*	*	*	*	*	*
=67	=67	=67	=67	=67	=67	=67	=67	=67	=67	=67	=67	=67	=67	=67	=67
8AA/yy	.	.	32e/LLL	.	32cc#X/LLL	fp	16G\LL	u-	8A\	mi-	4a\	no-	.	.	.
.	.	.	32g/	.	32a/	.	.	.	.	.	.	.	.	.	.
.	.	.	32g/	.	32a/	.	16E\JJ	.	.	.	.	.	.	.	.
.	.	.	32g/JJJ	.	32a/JJJ	.	.	.	.	.	.	.	.	.	.
*	*	*	*tremolo	*	*tremolo	*	*	*	*	*	*	*	*	*	*
!	!	!	!LO:TX:t=P:problem:rytm	!	!LO:TX:t=P:problem:rytm	!	!	!	!	!	!	!	!	!	!
8ryy	.	.	32g/LLL	.	32a/LLL	.	16F#\LL	-nus	8A\	-se-	.	.	.	.	.
.	.	.	32g/	.	32a/	.	.	.	.	.	.	.	.	.	.
.	.	.	32g/	.	32a/	.	16G\JJ	.	.	.	.	.	.	.	.
.	.	.	32g/JJJ	.	32a/JJJ	.	.	.	.	.	.	.	.	.	.
*	*	*	*Xtremolo	*	*Xtremolo	*	*	*	*	*	*	*	*	*	*
!	!	!	!	!	!	!LO:DY:t=fp.	!	!	!	!	!	!	!	!	!
8D\yy	.	.	32d/LLL	.	32dd/LLL	fp	8F#\	De-	8A\	-re-	4a\	-bis	.	.	.
.	.	.	32f#/	.	32a/	.	.	.	.	.	.	.	.	.	.
.	.	.	32f#/	.	32a/	.	.	.	.	.	.	.	.	.	.
.	.	.	32f#/JJJ	.	32a/JJJ	.	.	.	.	.	.	.	.	.	.
*	*	*	*tremolo	*	*tremolo	*	*	*	*	*	*	*	*	*	*
!	!	!	!LO:TX:t=P:problem:rytm	!	!LO:TX:t=P:problem:rytm	!	!	!	!	!	!	!	!	!	!
8ryy	.	.	32f#/LLL	.	32a/LLL	.	8D\	-us	8A\	-re	.	.	.	.	.
.	.	.	32f#/	.	32a/	.	.	.	.	.	.	.	.	.	.
.	.	.	32f#/	.	32a/	.	.	.	.	.	.	.	.	.	.
.	.	.	32f#/JJJ	.	32a/JJJ	.	.	.	.	.	.	.	.	.	.
*	*	*	*Xtremolo	*	*	*	*	*	*	*	*	*	*	*	*
=68	=68	=68	=68	=68	=68	=68	=68	=68	=68	=68	=68	=68	=68	=68	=68
!	!	!	!LO:SIC:v:o=32c/LLL	!	!LO:TX:t=P:problem:t. 68-69 - rytm	!	!	!	!	!	!	!	!	!	!
8A\yy	.	.	32c#/LLL	.	32e/LLL	.	8A\	mi-	4A\	no-	8.a\	San-	.	.	.
.	.	.	32e/	.	32g/	.	.	.	.	.	.	.	.	.	.
!	!	!	!LO:SIC:v:o=32c/	!	!	!	!	!	!	!	!	!	!	!	!
.	.	.	32c#/	.	32e/	.	.	.	.	.	.	.	.	.	.
.	.	.	32e/JJJ	.	32g/	.	.	.	.	.	.	.	.	.	.
*	*	*	*rep	*	*	*	*	*	*	*	*	*	*	*	*
!	!	!	!LO:SIC:v:o=32c/LLL	!	!	!	!	!	!	!	!	!	!	!	!
8ryy	.	.	32c#/LLL	.	32e/	.	8A\	-ſe-	.	.	.	.	.	.	.
.	.	.	32e/	.	32g/	.	.	.	.	.	.	.	.	.	.
!	!	!	!LO:SIC:v:o=32c/	!	!	!	!	!	!	!	!	!	!	!	!
.	.	.	32c#/	.	32e/	.	.	.	.	.	32b\LLL	-cta	.	.	.
!	!	!	!	!	!	!	!	!	!	!	!LO:SIC:v:o=32cc\JJJ	!	!	!	!
.	.	.	32e/JJJ	.	32g/JJJ	.	.	.	.	.	32cc#\JJJ	.	.	.	.
.	.	.	.	.	.	.	.	.	.	.	16qqee/	.	.	.	.
*	*	*	*Xrep	*	*	*	*	*	*	*	*	*	*	*	*
8D\yy	.	.	32d/LLL	.	32f#/LLL	.	8A\	-re-	4A\	-bis	16dd\LL	Tri-	.	.	.
.	.	.	32f#/	.	32a/	.	.	.	.	.	.	.	.	.	.
!	!	!	!	!	!	!	!	!	!	!	!LO:SIC:v:o=16cc\JJ	!	!	!	!
.	.	.	32d/	.	32f#/	.	.	.	.	.	16cc#\JJ	.	.	.	.
.	.	.	32f#/JJJ	.	32a/	.	.	.	.	.	.	.	.	.	.
*	*	*	*rep	*	*	*	*	*	*	*	*	*	*	*	*
8ryy	.	.	32d/LLL	.	32f#/	.	8A\	-re	.	.	16b\	-ni-	.	.	.
.	.	.	32f#/	.	32a/	.	.	.	.	.	.	.	.	.	.
.	.	.	32d/	.	32f#/	.	.	.	.	.	16a\	-tas	.	.	.
.	.	.	32f#/JJJ	.	32a/JJJ	.	.	.	.	.	.	.	.	.	.
*	*	*	*Xrep	*	*	*	*	*	*	*	*	*	*	*	*
!	!	!	!LO:LB:g=original	!	!	!	!LO:LB:g=original	!	!	!	!	!	!	!	!
=69	=69	=69	=69	=69	=69	=69	=69	=69	=69	=69	=69	=69	=69	=69	=69
*	*	*	*tremolo	*	*	*	*	*	*	*	*	*	*	*	*
!	!	!	!LO:TX:t=P:problem:t. 69 - rytm	!	!	!	!	!	!	!	!	!	!LO:N:vis=00	!LO:N:vis=00	!
8C#X\yy	.	.	32e/LLL	.	32g/LLL	.	4A\	no-	8.A\	San-	16g/LL	u-	0r	0r	.
.	.	.	32g/	.	32a/	.	.	.	.	.	.	.	.	.	.
.	.	.	32e/	.	32g/	.	.	.	.	.	16e/JJ	.	.	.	.
.	.	.	32g/	.	32a/	.	.	.	.	.	.	.	.	.	.
8ryy	.	.	32e/	.	32g/	.	.	.	.	.	16f#/LL	-nus	.	.	.
.	.	.	32g/	.	32a/	.	.	.	.	.	.	.	.	.	.
.	.	.	32e/	.	32g/	.	.	.	32B\LLL	-cta	16g/JJ	.	.	.	.
!	!	!	!	!	!	!	!	!	!LO:SIC:v:o=32c\JJJ	!	!	!	!	!	!
.	.	.	32g/JJJ	.	32a/JJJ	.	.	.	32c#\JJJ	.	.	.	.	.	.
!	!	!	!	!	!	!	!	!	!LO:LB:g=original	!	!	!	!	!	!
8D\yy	.	.	32d/LLL	.	32f#/LLL	.	4A\	-bis	16d\LL	Tri-	8f#/	De-	.	.	.
.	.	.	32f#/	.	32a/	.	.	.	.	.	.	.	.	.	.
.	.	.	32d/	.	32f#/	.	.	.	16A\JJ	.	.	.	.	.	.
.	.	.	32f#/	.	32a/	.	.	.	.	.	.	.	.	.	.
8ryy	.	.	32d/	.	32f#/	.	.	.	16F#/LL	-ni-	8d/	-us	.	.	.
.	.	.	32f#/	.	32a/	.	.	.	.	.	.	.	.	.	.
.	.	.	32d/	.	32f#/	.	.	.	16D/JJ	-tas	.	.	.	.	.
.	.	.	32f#/JJJ	.	32a/JJJ	.	.	.	.	.	.	.	.	.	.
*	*	*	*Xtremolo	*	*Xtremolo	*	*	*	*	*	*	*	*	*	*
=70	=70	=70	=70	=70	=70	=70	=70	=70	=70	=70	=70	=70	=70	=70	=70
!LO:TX:t=P:problem:źródło niekompletne	!	!	!	!	!	!	!	!	!	!	!	!	!	!	!
2ryy	.	.	8f# 8A/	.	8dd 8d/	.	16r	.	16r	.	2r	.	.	.	.
.	.	.	.	.	.	.	16D\LL	mi-	16F#/LL	mi-	.	.	.	.	.
.	.	.	8r	.	8r	.	16E\	.	16G/JJ	.	.	.	.	.	.
.	.	.	.	.	.	.	16F#\JJ	-ſe-	16A/	-se-	.	.	.	.	.
.	.	.	4r	.	4r	.	16G\LL	-re-	16B/LL	-re-	.	.	.	.	.
.	.	.	.	.	.	.	16E\JJ	.	16G/JJ	.	.	.	.	.	.
.	.	.	.	.	.	.	8F#\	-re	8A/	-re	.	.	.	.	.
!	!	!	!	!	!	!	!	!	!	!	!LO:LB:g=original	!	!	!	!
=71	=71	=71	=71	=71	=71	=71	=71	=71	=71	=71	=71	=71	=71	=71	=71
2ryy	.	.	8f# 8A/	.	8dd 8d/	.	2r	.	16r	.	16r	.	.	.	.
.	.	.	.	.	.	.	.	.	16F#/LL	mi-	16dd\LL	mi-	.	.	.
.	.	.	8r	.	8r	.	.	.	16G/JJ	.	16ee\	-se-	.	.	.
.	.	.	.	.	.	.	.	.	16A\	-se-	16ff#\JJ	.	.	.	.
.	.	.	4r	.	4r	.	.	.	16B\LL	-re-	16gg\LL	-re-	.	.	.
!	!	!	!	!	!	!	!	!	!LO:SIC:v:o=16c\JJ	!	!	!	!	!	!
.	.	.	.	.	.	.	.	.	16c#\JJ	.	16ee\J	.	.	.	.
.	.	.	.	.	.	.	.	.	8d\	-re	8ff#\J	-re	.	.	.
=72	=72	=72	=72	=72	=72	=72	=72	=72	=72	=72	=72	=72	=72	=72	=72
*	*	*	*	*	*	*	*	*	*	*ij	*	*	*	*	*
2ryy	.	.	8.g/L	.	8.ee\L	.	8.G\	mi-	8.B\	mi-	8.ee\	mi-	.	.	.
.	.	.	16b/Jk	.	16gg\Jk	.	16E\	-se-	16B\	-se-	16gg\	-se-	.	.	.
.	.	.	16a/LL	.	16ff#\LL	.	16F#\	-re-	16A/	-re-	16ff#\	-re-	.	.	.
.	.	.	16g/	.	16ee\	.	16G\	-re	16G/	-re	16ee\	-re	.	.	.
*	*	*	*	*	*	*	*	*	*	*Xij	*	*	*	*	*
!	!	!	!	!	!	!	!LO:TX:t=P:problem:mixed beam	!	!	!	!	!	!	!	!
.	.	.	16f#/	.	16dd\	.	16A\LL	no-	16F#/LL	no-	16dd\LL	no-	.	.	.
.	.	.	16e/JJ	.	16cc#X\JJ	.	16AA/JJ	.	16E/JJ	.	16cc#X\JJ	.	.	.	.
=73	=73	=73	=73	=73	=73	=73	=73	=73	=73	=73	=73	=73	=73	=73	=73
!	!	!	!	!	!	!	!	!	!	!	!	!	!LO:N:vis=00	!LO:N:vis=00	!
2ryy	.	.	32d/LLL	f	16dd\LL	f	8D\	-bis	8F#/	-bis	8dd\	-bis	0r	0r	.
.	.	.	32f#/	.	.	.	.	.	.	.	.	.	.	.	.
.	.	.	32a/	.	16dd\	.	.	.	.	.	.	.	.	.	.
.	.	.	32f#/JJJ	.	.	.	.	.	.	.	.	.	.	.	.
*	*	*	*rep	*	*	*	*	*	*	*	*	*	*	*	*
.	.	.	32d/LLL	.	16ff#\	.	8r	.	8r	.	8r	.	.	.	.
.	.	.	32f#/	.	.	.	.	.	.	.	.	.	.	.	.
.	.	.	32a/	.	16aa\JJ	.	.	.	.	.	.	.	.	.	.
.	.	.	32f#/JJJ	.	.	.	.	.	.	.	.	.	.	.	.
*	*	*	*Xrep	*	*	*	*	*	*	*	*	*	*	*	*
*	*	*	*rep	*	*	*	*	*	*	*	*	*	*	*	*
.	.	.	32d/LLL	.	8ddd\	.	4r	.	4r	.	4r	.	.	.	.
.	.	.	32f#/	.	.	.	.	.	.	.	.	.	.	.	.
.	.	.	32a/	.	.	.	.	.	.	.	.	.	.	.	.
.	.	.	32f#/JJJ	.	.	.	.	.	.	.	.	.	.	.	.
*	*	*	*Xrep	*	*	*	*	*	*	*	*	*	*	*	*
*	*	*	*rep	*	*	*	*	*	*	*	*	*	*	*	*
.	.	.	32d/LLL	.	8r	.	.	.	.	.	.	.	.	.	.
.	.	.	32f#/	.	.	.	.	.	.	.	.	.	.	.	.
.	.	.	32a/	.	.	.	.	.	.	.	.	.	.	.	.
.	.	.	32f#/JJJ	.	.	.	.	.	.	.	.	.	.	.	.
*	*	*	*Xrep	*	*	*	*	*	*	*	*	*	*	*	*
!	!	!	!	!	!LO:LB:g=original	!	!	!	!	!	!	!	!	!	!
=74	=74	=74	=74	=74	=74	=74	=74	=74	=74	=74	=74	=74	=74	=74	=74
!	!	!	!	!	!	!	!LO:N:vis=00	!	!LO:N:vis=00	!	!LO:N:vis=00	!	!	!	!
*	*	*	*rep	*	*	*	*	*	*	*	*	*	*	*	*
2ryy	.	.	32d/LLL	.	16dd\LL	.	0r	.	0r	.	0r	.	.	.	.
.	.	.	32f#/	.	.	.	.	.	.	.	.	.	.	.	.
.	.	.	32a/	.	16dd\	.	.	.	.	.	.	.	.	.	.
.	.	.	32f#/JJJ	.	.	.	.	.	.	.	.	.	.	.	.
*	*	*	*Xrep	*	*	*	*	*	*	*	*	*	*	*	*
*	*	*	*rep	*	*	*	*	*	*	*	*	*	*	*	*
.	.	.	32d/LLL	.	16ff#\	.	.	.	.	.	.	.	.	.	.
.	.	.	32f#/	.	.	.	.	.	.	.	.	.	.	.	.
.	.	.	32a/	.	16aa\JJ	.	.	.	.	.	.	.	.	.	.
.	.	.	32f#/JJJ	.	.	.	.	.	.	.	.	.	.	.	.
*	*	*	*Xrep	*	*	*	*	*	*	*	*	*	*	*	*
*	*	*	*rep	*	*	*	*	*	*	*	*	*	*	*	*
.	.	.	32d/LLL	.	8ddd\	.	.	.	.	.	.	.	.	.	.
.	.	.	32f#/	.	.	.	.	.	.	.	.	.	.	.	.
.	.	.	32a/	.	.	.	.	.	.	.	.	.	.	.	.
.	.	.	32f#/JJJ	.	.	.	.	.	.	.	.	.	.	.	.
*	*	*	*Xrep	*	*	*	*	*	*	*	*	*	*	*	*
*	*	*	*rep	*	*	*	*	*	*	*	*	*	*	*	*
.	.	.	32d/LLL	.	8r	.	.	.	.	.	.	.	.	.	.
.	.	.	32f#/	.	.	.	.	.	.	.	.	.	.	.	.
.	.	.	32a/	.	.	.	.	.	.	.	.	.	.	.	.
.	.	.	32f#/JJJ	.	.	.	.	.	.	.	.	.	.	.	.
*	*	*	*Xrep	*	*	*	*	*	*	*	*	*	*	*	*
=75	=75	=75	=75	=75	=75	=75	=75	=75	=75	=75	=75	=75	=75	=75	=75
2ryy	.	.	32d/LLL	.	16dd\LL	.	.	.	.	.	.	.	.	.	.
.	.	.	32g/	.	.	.	.	.	.	.	.	.	.	.	.
.	.	.	32b/	.	16dd\	.	.	.	.	.	.	.	.	.	.
.	.	.	32g/JJJ	.	.	.	.	.	.	.	.	.	.	.	.
*	*	*	*rep	*	*	*	*	*	*	*	*	*	*	*	*
.	.	.	32d/LLL	.	16gg\	.	.	.	.	.	.	.	.	.	.
.	.	.	32g/	.	.	.	.	.	.	.	.	.	.	.	.
.	.	.	32b/	.	16bb\JJ	.	.	.	.	.	.	.	.	.	.
.	.	.	32g/JJJ	.	.	.	.	.	.	.	.	.	.	.	.
*	*	*	*Xrep	*	*	*	*	*	*	*	*	*	*	*	*
*	*	*	*rep	*	*	*	*	*	*	*	*	*	*	*	*
.	.	.	32d/LLL	.	8ddd\	.	.	.	.	.	.	.	.	.	.
.	.	.	32g/	.	.	.	.	.	.	.	.	.	.	.	.
.	.	.	32b/	.	.	.	.	.	.	.	.	.	.	.	.
.	.	.	32g/JJJ	.	.	.	.	.	.	.	.	.	.	.	.
*	*	*	*Xrep	*	*	*	*	*	*	*	*	*	*	*	*
*	*	*	*rep	*	*	*	*	*	*	*	*	*	*	*	*
.	.	.	32d/LLL	.	8r	.	.	.	.	.	.	.	.	.	.
.	.	.	32g/	.	.	.	.	.	.	.	.	.	.	.	.
.	.	.	32b/	.	.	.	.	.	.	.	.	.	.	.	.
.	.	.	32g/JJJ	.	.	.	.	.	.	.	.	.	.	.	.
*	*	*	*Xrep	*	*	*	*	*	*	*	*	*	*	*	*
=76	=76	=76	=76	=76	=76	=76	=76	=76	=76	=76	=76	=76	=76	=76	=76
2ryy	.	.	16r	.	16aa\LL	p	.	.	.	.	.	.	.	.	.
!	!	!	!	!LO:DY:t=p	!	!	!	!	!	!	!	!	!	!	!
.	.	.	16aLL 16e/	p	16cccn\J	.	.	.	.	.	.	.	.	.	.
.	.	.	16a 16e/	.	8.eee\J	.	.	.	.	.	.	.	.	.	.
.	.	.	16aJJ 16e/	.	.	.	.	.	.	.	.	.	.	.	.
!	!	!	!LO:LB:g=original	!	!	!	!	!	!	!	!	!	!	!	!
.	.	.	16r	.	.	.	.	.	.	.	.	.	.	.	.
.	.	.	16aLL 16e/	.	16ddd\LL	.	.	.	.	.	.	.	.	.	.
.	.	.	16a 16e/	.	16ccc\	.	.	.	.	.	.	.	.	.	.
.	.	.	16aJJ 16e/	.	16bb\JJ	.	.	.	.	.	.	.	.	.	.
=77	=77	=77	=77	=77	=77	=77	=77	=77	=77	=77	=77	=77	=77	=77	=77
!	!	!	!	!	!	!	!	!	!	!	!	!	!LO:N:vis=00	!LO:N:vis=00	!
2ryy	.	.	16r	.	16bb\LL	.	.	.	.	.	.	.	0r	0r	.
.	.	.	16aLL 16e/	.	16ccc\J	.	.	.	.	.	.	.	.	.	.
.	.	.	16a 16e/	.	8.aa\J	.	.	.	.	.	.	.	.	.	.
.	.	.	16aJJ 16e/	.	.	.	.	.	.	.	.	.	.	.	.
.	.	.	16r	.	.	.	.	.	.	.	.	.	.	.	.
.	.	.	16a 16e/	.	16ee\LL	.	.	.	.	.	.	.	.	.	.
.	.	.	16r	.	16aa\	.	.	.	.	.	.	.	.	.	.
.	.	.	16g 16A/	.	16gg\JJ	.	.	.	.	.	.	.	.	.	.
=78	=78	=78	=78	=78	=78	=78	=78	=78	=78	=78	=78	=78	=78	=78	=78
!	!	!	!	!LO:DY:rj	!	!	!	!	!LO:N:vis=00	!	!LO:N:vis=00	!	!	!	!
2ryy	.	.	8f#L 8A/	f	8ff#\L	f	2r	.	0r	.	0r	.	.	.	.
.	.	.	8ff# 8a 8d/	.	8ddd 8ff#\	.	.	.	.	.	.	.	.	.	.
.	.	.	8ff#J 8a 8d/	.	8dddJ 8ff#\	.	.	.	.	.	.	.	.	.	.
.	.	.	8r	.	8r	.	.	.	.	.	.	.	.	.	.
=79	=79	=79	=79	=79	=79	=79	=79	=79	=79	=79	=79	=79	=79	=79	=79
2ryy	.	.	16r	.	16r	.	16D\LL	Pa-	.	.	.	.	.	.	.
!	!	!	!	!LO:DY:rj:t=p	!	!	!	!	!	!	!	!	!	!	!
.	.	.	16d/LL	p	16b/LL	p	16G\JJ	.	.	.	.	.	.	.	.
.	.	.	16d/	.	16b/	.	4G\	-ter	.	.	.	.	.	.	.
.	.	.	16B/JJ	.	16g/JJ	.	.	.	.	.	.	.	.	.	.
.	.	.	16r	.	16r	.	.	.	.	.	.	.	.	.	.
.	.	.	16B/LL	.	16g/LL	.	.	.	.	.	.	.	.	.	.
.	.	.	16c/	.	16a/	.	16A\LL	de	.	.	.	.	.	.	.
.	.	.	16d/JJ	.	16b/JJ	.	16B\JJ	.	.	.	.	.	.	.	.
!	!	!	!	!	!	!	!LO:LB:g=original	!	!	!	!	!	!	!	!
=80	=80	=80	=80	=80	=80	=80	=80	=80	=80	=80	=80	=80	=80	=80	=80
2ryy	.	.	16r	.	16r	.	32c\LLL	coe-	.	.	.	.	.	.	.
.	.	.	.	.	.	.	32B\	.	.	.	.	.	.	.	.
.	.	.	16c/LL	.	16a/LL	.	32A\	.	.	.	.	.	.	.	.
.	.	.	.	.	.	.	32B\JJJ	.	.	.	.	.	.	.	.
.	.	.	16c/	.	16a/	.	8A\	-lis	.	.	.	.	.	.	.
.	.	.	16A/JJ	.	16f#/JJ	.	.	.	.	.	.	.	.	.	.
.	.	.	16r	.	16r	.	16r	.	.	.	.	.	.	.	.
.	.	.	16A/LL	.	16f#/LL	.	16A\	Pa-	.	.	.	.	.	.	.
.	.	.	16c/	.	16a/	.	16c\	-ter	.	.	.	.	.	.	.
.	.	.	16e/JJ	.	16cc/JJ	.	16e\	de	.	.	.	.	.	.	.
!	!	!	!	!	!LO:LB:g=original	!	!	!	!	!	!	!	!	!	!
=81	=81	=81	=81	=81	=81	=81	=81	=81	=81	=81	=81	=81	=81	=81	=81
!	!	!	!	!	!	!	!	!	!	!	!	!	!LO:N:vis=00	!LO:N:vis=00	!
2ryy	.	.	16e/LL	.	16cc/LL	.	16e\LL	coe-	.	.	.	.	0r	0r	.
.	.	.	16d/	.	16b/	.	16d\JJ	.	.	.	.	.	.	.	.
.	.	.	16c/	.	16a/	.	16c\	-lis	.	.	.	.	.	.	.
.	.	.	16B/JJ	.	16g/JJ	.	16B\	de	.	.	.	.	.	.	.
.	.	.	16b/LL	.	16dd\LL	.	16B\LL	coe-	.	.	.	.	.	.	.
.	.	.	16a/	.	16cc\	.	16A\JJ	.	.	.	.	.	.	.	.
.	.	.	16g/	.	16b\	.	16G\LL	-lis	.	.	.	.	.	.	.
.	.	.	16f#/JJ	.	16a\JJ	.	16F#\JJ	.	.	.	.	.	.	.	.
=82	=82	=82	=82	=82	=82	=82	=82	=82	=82	=82	=82	=82	=82	=82	=82
!	!	!	!	!	!	!	!	!	!LO:N:vis=00	!	!LO:N:vis=00	!	!	!	!
2ryy	.	.	16a/LL	.	16cc\LL	.	16A\LL	De-	0r	.	0r	.	.	.	.
.	.	.	16g/J	.	16b\J	.	16G\JJ	.	.	.	.	.	.	.	.
.	.	.	8g/J	.	8b\J	.	16G\	-us	.	.	.	.	.	.	.
.	.	.	.	.	.	.	16r	.	.	.	.	.	.	.	.
*	*	*	*	*	*	*	*	*ij	*	*	*	*	*	*	*
.	.	.	16r	.	16r	.	16F#\LL	Pa-	.	.	.	.	.	.	.
.	.	.	16A/LL	.	16f#/LL	.	16A\JJ	.	.	.	.	.	.	.	.
.	.	.	16c/	.	16a/	.	16c\	-ter	.	.	.	.	.	.	.
.	.	.	16e/JJ	.	16cc/JJ	.	16e\	de	.	.	.	.	.	.	.
!	!	!	!LO:LB:g=original	!	!	!	!	!	!	!	!	!	!	!	!
=83	=83	=83	=83	=83	=83	=83	=83	=83	=83	=83	=83	=83	=83	=83	=83
2ryy	.	.	16e/LL	.	16cc/LL	.	16e\LL	coe-	.	.	.	.	.	.	.
.	.	.	16d/	.	16b/	.	16d\JJ	.	.	.	.	.	.	.	.
!	!	!	!	!	!	!	!LO:LB:g=original	!	!	!	!	!	!	!	!
.	.	.	16c/	.	16a/	.	16c\	-lis	.	.	.	.	.	.	.
.	.	.	16B/JJ	.	16g/JJ	.	16B\	de	.	.	.	.	.	.	.
.	.	.	16d/LL	.	16b/LL	.	16.d\LL	coe-	.	.	.	.	.	.	.
.	.	.	16c/	.	16a/	.	.	.	.	.	.	.	.	.	.
.	.	.	.	.	.	.	32c\JJk	.	.	.	.	.	.	.	.
.	.	.	16B/	.	16g/	.	16.B\LL	-lis	.	.	.	.	.	.	.
.	.	.	16A/JJ	.	16f#/JJ	.	.	.	.	.	.	.	.	.	.
.	.	.	.	.	.	.	32A\JJk	.	.	.	.	.	.	.	.
=84	=84	=84	=84	=84	=84	=84	=84	=84	=84	=84	=84	=84	=84	=84	=84
!	!	!	!	!LO:DY:rj	!	!	!	!	!	!	!	!	!	!	!
2ryy	.	.	8B/L	f	8g/L	f	32B\LLL	De-	.	.	.	.	.	.	.
.	.	.	.	.	.	.	32A\	.	.	.	.	.	.	.	.
.	.	.	.	.	.	.	32G\	.	.	.	.	.	.	.	.
.	.	.	.	.	.	.	32A\JJJ	.	.	.	.	.	.	.	.
.	.	.	8b 8d 8G/	.	8gg 8b 8d 8G/	.	8G\	-us	.	.	.	.	.	.	.
*	*	*	*	*	*	*	*	*Xij	*	*	*	*	*	*	*
.	.	.	8bJ 8d 8G/	.	8ggJ 8b 8d 8G/	.	4r	.	.	.	.	.	.	.	.
.	.	.	8r	.	8r	.	.	.	.	.	.	.	.	.	.
=85	=85	=85	=85	=85	=85	=85	=85	=85	=85	=85	=85	=85	=85	=85	=85
!	!	!	!	!	!	!	!	!	!	!	!	!	!LO:N:vis=00	!LO:N:vis=00	!
2ryy	.	.	16B/LL	.	16B/LL	p	8.G\	mi-	.	.	.	.	0r	0r	.
.	.	.	16d/	.	16d/	.	.	.	.	.	.	.	.	.	.
.	.	.	16B/	.	16g/	.	.	.	.	.	.	.	.	.	.
.	.	.	16d/JJ	.	32f#/L	.	32A\LLL	-se-	.	.	.	.	.	.	.
.	.	.	.	.	32g/JJJ	.	32B\JJJ	.	.	.	.	.	.	.	.
.	.	.	16c/LL	.	16a/LL	.	16c\LL	-re-	.	.	.	.	.	.	.
.	.	.	16A/	.	16f#/	.	16A\	.	.	.	.	.	.	.	.
.	.	.	16.d/	.	16b/	.	16.d\	-re	.	.	.	.	.	.	.
.	.	.	.	.	16a/JJ	.	.	.	.	.	.	.	.	.	.
.	.	.	32c/JJk	.	.	.	32c\JJk	.	.	.	.	.	.	.	.
=86	=86	=86	=86	=86	=86	=86	=86	=86	=86	=86	=86	=86	=86	=86	=86
!	!	!	!	!	!	!	!	!	!LO:N:vis=00	!	!LO:N:vis=00	!	!	!	!
2ryy	.	.	8c/L	.	8a/	f	8c\	no-	0r	.	0r	.	.	.	.
.	.	.	8B/J	.	32b/LLL	.	8B\	-bis	.	.	.	.	.	.	.
.	.	.	.	.	32g/	.	.	.	.	.	.	.	.	.	.
.	.	.	.	.	32a/	.	.	.	.	.	.	.	.	.	.
.	.	.	.	.	32b/JJJ	.	.	.	.	.	.	.	.	.	.
.	.	.	4r	.	32cc\LLL	.	4r	.	.	.	.	.	.	.	.
.	.	.	.	.	32dd\	.	.	.	.	.	.	.	.	.	.
.	.	.	.	.	32ee\	.	.	.	.	.	.	.	.	.	.
.	.	.	.	.	32ff#\JJJ	.	.	.	.	.	.	.	.	.	.
.	.	.	.	.	32gg\LLL	.	.	.	.	.	.	.	.	.	.
.	.	.	.	.	32dd\	.	.	.	.	.	.	.	.	.	.
.	.	.	.	.	32b\	.	.	.	.	.	.	.	.	.	.
.	.	.	.	.	32g\JJJ	.	.	.	.	.	.	.	.	.	.
!	!	!	!	!	!LO:LB:g=original	!	!	!	!	!	!	!	!	!	!
=87	=87	=87	=87	=87	=87	=87	=87	=87	=87	=87	=87	=87	=87	=87	=87
*	*	*	*	*	*	*	*	*ij	*	*	*	*	*	*	*
2ryy	.	.	16B/LL	.	8.g/L	p	8.B\	mi-	.	.	.	.	.	.	.
.	.	.	16d/	.	.	.	.	.	.	.	.	.	.	.	.
.	.	.	16B/	.	.	.	.	.	.	.	.	.	.	.	.
.	.	.	32c/L	.	32a/LL	.	32c\LLL	-se-	.	.	.	.	.	.	.
.	.	.	32d/JJJ	.	32b/JJJ	.	32d\JJJ	.	.	.	.	.	.	.	.
.	.	.	16e/LL	.	16.cc/LL	.	16.e\LL	-re-	.	.	.	.	.	.	.
.	.	.	16c/	.	.	.	.	.	.	.	.	.	.	.	.
.	.	.	.	.	32a/K	.	32c\JJk	.	.	.	.	.	.	.	.
.	.	.	16d/	.	16b/	.	16d\LL	-re	.	.	.	.	.	.	.
.	.	.	16e/JJ	.	16cc/JJ	.	16e\JJ	.	.	.	.	.	.	.	.
!	!	!	!	!	!	!	!LO:LB:g=original	!	!	!	!	!	!	!	!
=88	=88	=88	=88	=88	=88	=88	=88	=88	=88	=88	=88	=88	=88	=88	=88
2ryy	.	.	8e/L	.	8cc\	.	8e\	no-	.	.	.	.	.	.	.
.	.	.	8d/J	.	32dd\LLL	f	8d\	-bis	.	.	.	.	.	.	.
*	*	*	*	*	*	*	*	*Xij	*	*	*	*	*	*	*
.	.	.	.	.	32b\	.	.	.	.	.	.	.	.	.	.
.	.	.	.	.	32cc\	.	.	.	.	.	.	.	.	.	.
.	.	.	.	.	32dd\JJJ	.	.	.	.	.	.	.	.	.	.
.	.	.	4r	.	32ee\LLL	.	4r	.	.	.	.	.	.	.	.
.	.	.	.	.	32ff#\	.	.	.	.	.	.	.	.	.	.
.	.	.	.	.	32gg\	.	.	.	.	.	.	.	.	.	.
.	.	.	.	.	32aa\JJJ	.	.	.	.	.	.	.	.	.	.
.	.	.	.	.	32bb\LLL	.	.	.	.	.	.	.	.	.	.
.	.	.	.	.	32gg\	.	.	.	.	.	.	.	.	.	.
.	.	.	.	.	32dd\	.	.	.	.	.	.	.	.	.	.
.	.	.	.	.	32b\JJJ	.	.	.	.	.	.	.	.	.	.
=89	=89	=89	=89	=89	=89	=89	=89	=89	=89	=89	=89	=89	=89	=89	=89
!	!	!	!	!	!	!	!	!	!	!	!	!	!LO:N:vis=0	!LO:N:vis=0	!
2ryy	.	.	16d/LL	.	16b/LL	p	16d\LL	mi-	.	.	.	.	1r	1r	.
.	.	.	16c#X/J	.	16a#X/J	.	16c#X\JJ	.	.	.	.	.	.	.	.
.	.	.	8.cn/J	.	8.an/J	.	8.cn\	-ſe-	.	.	.	.	.	.	.
.	.	.	16B/LL	.	16g/LL	.	16B\LL	-re-	.	.	.	.	.	.	.
.	.	.	16d/	.	16.b/	.	16.d\	.	.	.	.	.	.	.	.
.	.	.	16B/JJ	.	.	.	.	.	.	.	.	.	.	.	.
.	.	.	.	.	32g/JJk	.	32B\JJk	-re	.	.	.	.	.	.	.
=90	=90	=90	=90	=90	=90	=90	=90	=90	=90	=90	=90	=90	=90	=90	=90
2ryy	.	.	32c/LLL	.	32a/LLL	.	32c\LLL	no-	2r	.	2r	.	.	.	.
.	.	.	32B/	.	32g/	.	32B\	.	.	.	.	.	.	.	.
.	.	.	32A/	.	32f#/	.	32A\	.	.	.	.	.	.	.	.
.	.	.	32B/JJJ	.	32g/JJJ	.	32B\JJJ	.	.	.	.	.	.	.	.
!	!	!	!LO:LB:g=original	!	!	!	!	!	!	!	!	!	!	!	!
.	.	.	16A/LL	.	16f#/LL	.	8A\	-bis	.	.	.	.	.	.	.
.	.	.	16d/J	.	16dd 16d/	.	.	.	.	.	.	.	.	.	.
.	.	.	8d/J	.	16ddJJ 16d/	.	4r	.	.	.	.	.	.	.	.
.	.	.	.	.	16r	.	.	.	.	.	.	.	.	.	.
.	.	.	8r	.	8ryy	.	.	.	.	.	.	.	.	.	.
!	!	!	!	!	!	!	!	!	!LO:LB:g=original	!	!	!	!	!	!
=91	=91	=91	=91	=91	=91	=91	=91	=91	=91	=91	=91	=91	=91	=91	=91
!	!	!	!	!LO:DY:rj:t=p	!	!LO:DY:rj	!	!	!	!	!	!	!LO:TX:a:t=Solo	!LO:TX:a:t=Solo	!LO:DY:t=f
2ryy	.	.	16g\LL	p	16g\LL	p	8G\	mi-	16G\LL	mi-	16g\LL	mi-	8B/L	8g\L	f
.	.	.	16ee\	.	16gg\	.	.	.	16e\JJ	.	16gg\JJ	.	.	.	.
.	.	.	16dd\	.	16ff#\	.	8G\	-ſe-	16d\LL	-se-	16ff#\LL	-ſe-	16d/L	16a\L	.
.	.	.	16cc\JJ	.	16ee\JJ	.	.	.	16c\JJ	.	16ee\JJ	.	16a/JJ	16cc\JJ	.
.	.	.	16b\LL	<	16dd\LL	<	8G\	-re-	16B\LL	-re-	16dd\LL	-re-	8g/L	8b\L	.
.	.	.	16ee\	.	16gg\	.	.	.	16e\JJ	.	16gg\JJ	.	.	.	.
.	.	.	16dd\	.	16ff#\	.	8G\	-re	16d\LL	-re	16ff#\LL	-re	16d/L	16a\L	.
.	.	.	16cc\JJ	.	16ee\JJ	.	.	.	16c\JJ	.	16ee\JJ	.	16a/JJ	16cc\JJ	.
!	!	!	!	!	!	!	!	!	!	!	!LO:LB:g=original	!	!	!	!
=92	=92	=92	=92	=92	=92	=92	=92	=92	=92	=92	=92	=92	=92	=92	=92
*	*	*	*	*	*	*	*	*ij	*	*ij	*	*ij	*	*	*
2ryy	.	.	32b\LLL	.	32dd\LLL	.	8G\	mi-	16B\LL	mi-	16dd\LL	mi-	16g/LL	16b\LL	.
.	.	.	32b\	.	32dd\	.	.	.	.	.	.	.	.	.	.
.	.	.	32ee\	.	32gg\	.	.	.	16e\JJ	.	16gg\JJ	.	16g/	16b\	.
.	.	.	32ee\JJJ	.	32gg\JJJ	.	.	.	.	.	.	.	.	.	.
.	.	.	32dd\LLL	.	32ff#\LLL	.	8G\	-ſe-	16d\LL	-se-	16ff#\LL	-se-	16d/	16a\	.
.	.	.	32dd\	.	32ff#\	.	.	.	.	.	.	.	.	.	.
.	.	.	32cc\	.	32ee\	.	.	.	16c\JJ	.	16ee\JJ	.	16a/JJ	16cc\JJ	.
.	.	.	32cc\JJJ	.	32ee\JJJ	.	.	.	.	.	.	.	.	.	.
!	!	!	!	!	!LO:LB:g=original	!	!	!	!	!	!	!	!	!	!
.	.	.	32b\LLL	.	32dd\LLL	.	8G\	-re-	16B\LL	-re-	16dd\LL	-re-	16g/LL	16b\LL	.
.	.	.	32b\	.	32dd\	.	.	.	.	.	.	.	.	.	.
.	.	.	32ee\	.	32gg\	.	.	.	16e\JJ	.	16gg\JJ	.	16g/	16b\	.
.	.	.	32ee\JJJ	.	32gg\JJJ	.	.	.	.	.	.	.	.	.	.
.	.	.	32dd\LLL	.	32ff#\LLL	.	8G\	-re	16d\LL	-re	16ff#\LL	-re	16d/	16a\	.
.	.	.	32dd\	.	32ff#\	.	.	.	.	.	.	.	.	.	.
.	.	.	32cc\	.	32ee\	.	.	.	16c\JJ	.	16ee\JJ	.	16a/JJ	16cc\JJ	.
.	.	.	32cc\JJJ	.	32ee\JJJ	.	.	.	.	.	.	.	.	.	.
!	!	!	!	!	!	!	!	!	!	!	!	!	!LO:LB:g=original	!	!
=93	=93	=93	=93	=93	=93	=93	=93	=93	=93	=93	=93	=93	=93	=93	=93
*	*	*	*tremolo	*	*tremolo	*	*	*	*	*	*	*	*	*	*
!	!	!	!LO:TX:t=P:problem:t. 93-94 - rytm	!	!LO:TX:t=P:problem:t. 93-94 - rytm	!	!	!	!	!	!	!	!	!	!
2ryy	.	.	32b\LLL	.	32dd\LLL	.	8B\	mi-	8B\	mi-	8dd\	mi-	8g\L	8b\L	.
.	.	.	32b\	.	32dd\	.	.	.	.	.	.	.	.	.	.
.	.	.	32b\	.	32dd\	.	.	.	.	.	.	.	.	.	.
.	.	.	32b\	.	32dd\JJJ	.	.	.	.	.	.	.	.	.	.
.	.	.	32b\	.	32gg\LLL	.	8B\	-ſe-	8G/	-se-	8dd\	-se-	8g\	8b\	.
.	.	.	32b\	.	32gg\	.	.	.	.	.	.	.	.	.	.
.	.	.	32b\	.	32gg\	.	.	.	.	.	.	.	.	.	.
.	.	.	32b\JJJ	.	32gg\JJJ	.	.	.	.	.	.	.	.	.	.
.	.	.	32cc\LLL	.	32ee\LLL	.	8c\	-re-	8A\	-re-	8ee\	-re-	8a\	8cc\	.
.	.	.	32cc\	.	32ee\	.	.	.	.	.	.	.	.	.	.
.	.	.	32cc\	.	32ee\	.	.	.	.	.	.	.	.	.	.
.	.	.	32cc\	.	32ee\JJJ	.	.	.	.	.	.	.	.	.	.
.	.	.	32cc\	.	32aa\LLL	.	8c\	-re	8A\	-re	32dd\LLL	-re	8a\J	8cc\J	.
*	*	*	*	*	*	*	*	*Xij	*	*Xij	*	*Xij	*	*	*
.	.	.	32cc\	.	32aa\	.	.	.	.	.	32cc\	.	.	.	.
.	.	.	32cc\	.	32aa\	.	.	.	.	.	32b\	.	.	.	.
.	.	.	32cc\JJJ	.	32aa\JJJ	.	.	.	.	.	32a\JJJ	.	.	.	.
!	!	!	!	!	!	!	!LO:LB:g=original	!	!	!	!	!	!	!	!
=94	=94	=94	=94	=94	=94	=94	=94	=94	=94	=94	=94	=94	=94	=94	=94
2ryy	.	.	32bLLL 32d/	.	32b\LLL	.	4d\	no-	4G/	no-	4b\	no-	4g\	4b\	.
.	.	.	32b 32d/	.	32gg\	.	.	.	.	.	.	.	.	.	.
.	.	.	32b 32d/	.	32b\	.	.	.	.	.	.	.	.	.	.
.	.	.	32b 32d/	.	32gg\	.	.	.	.	.	.	.	.	.	.
.	.	.	32b 32d/	.	32b\	.	.	.	.	.	.	.	.	.	.
.	.	.	32b 32d/	.	32gg\	.	.	.	.	.	.	.	.	.	.
.	.	.	32b 32d/	.	32b\	.	.	.	.	.	.	.	.	.	.
.	.	.	32bJJJ 32d/	.	32gg\JJJ	.	.	.	.	.	.	.	.	.	.
.	.	.	32ccLLL 32d/	.	32a\LLL	.	4D\	.	4F#/	.	4aT\	.	4d/	4a\	.
.	.	.	32cc 32d/	.	32ff#\	.	.	.	.	.	.	.	.	.	.
.	.	.	32cc 32d/	.	32a\	.	.	.	.	.	.	.	.	.	.
.	.	.	32cc 32d/	.	32ff#\	.	.	.	.	.	.	.	.	.	.
.	.	.	32cc 32d/	.	32a\	.	.	.	.	.	.	.	.	.	.
.	.	.	32cc 32d/	.	32ff#\	.	.	.	.	.	.	.	.	.	.
.	.	.	32cc 32d/	.	32a\	.	.	.	.	.	.	.	.	.	.
.	.	.	32ccJJJ 32d/	.	32ff#\JJJ	.	.	.	.	.	.	.	.	.	.
*	*	*	*Xtremolo	*	*Xtremolo	*	*	*	*	*	*	*	*	*	*
!	!	!	!	!	!	!	!	!	!	!	!	!	!	!LO:LB:g=original	!
=95	=95	=95	=95	=95	=95	=95	=95	=95	=95	=95	=95	=95	=95	=95	=95
2ryy	.	.	16bLL 16d/	.	16ggLL 16b\	p	16G\	-bis	8G/	-bis	16g\	-bis	8B/L	8g\L	.
.	.	.	16ee/	.	16gg\	.	16e\LL	mi-	.	.	16gg\LL	mi-	.	.	.
.	.	.	16dd/	.	16ff#\	.	16d\JJ	.	16G/	mi-	16ff#\JJ	.	16d/L	16a\L	.
.	.	.	16cc/JJ	.	16ee\JJ	.	16c\	-ſe-	16G/	-se-	16ee\	-se-	16a/JJ	16cc\JJ	.
.	.	.	16b\LL	.	16dd\LL	<	16B\LL	-re-	8G/	-re-	16dd\LL	-re-	8g/L	8b\L	.
.	.	.	16ee\	.	16gg\	.	16e\JJ	.	.	.	16gg\JJ	.	.	.	.
.	.	.	16dd\	.	16gg\	.	16d\LL	-re	8G/	-re	16ff#\LL	-re	16d/L	16a\L	.
.	.	.	16cc\JJ	.	16ff#\JJ	.	16c\JJ	.	.	.	16ee\JJ	.	16a/JJ	16cc\JJ	.
!	!	!	!	!	!	!	!	!	!	!	!LO:LB:g=original	!	!	!	!
=96	=96	=96	=96	=96	=96	=96	=96	=96	=96	=96	=96	=96	=96	=96	=96
*	*	*	*	*	*	*	*	*ij	*	*ij	*	*ij	*	*	*
2ryy	.	.	32b\LLL	.	32dd\LLL	.	16B\LL	mi-	8G/	mi-	16dd\LL	mi-	16g/LL	16b\LL	.
.	.	.	32b\	.	32dd\	.	.	.	.	.	.	.	.	.	.
.	.	.	32ee\	.	32gg\	.	16e\JJ	.	.	.	16gg\JJ	.	16g/	16b\	.
.	.	.	32ee\JJJ	.	32gg\JJJ	.	.	.	.	.	.	.	.	.	.
.	.	.	32dd\LLL	.	32ff#\LLL	.	16d\LL	-ſe-	8G/	-se-	16ff#\LL	-se-	16d/	16a\	.
.	.	.	32dd\	.	32ff#\	.	.	.	.	.	.	.	.	.	.
.	.	.	32cc\	.	32ee\	.	16c\JJ	.	.	.	16ee\JJ	.	16a/JJ	16cc\JJ	.
.	.	.	32cc\JJJ	.	32ee\JJJ	.	.	.	.	.	.	.	.	.	.
!	!	!	!LO:LB:g=original	!	!	!	!	!	!	!	!	!	!	!	!
.	.	.	32b\LLL	.	32dd\LLL	.	16B\LL	-re-	8G/	-re-	16dd\LL	-re-	16g/LL	16b\LL	.
.	.	.	32b\	.	32dd\	.	.	.	.	.	.	.	.	.	.
.	.	.	32ee\	.	32gg\	.	16e\JJ	.	.	.	16gg\JJ	.	16g/	16b\	.
.	.	.	32ee\JJJ	.	32gg\JJJ	.	.	.	.	.	.	.	.	.	.
.	.	.	32dd\LLL	.	32ff#\LLL	.	16d\LL	-re	8G/	-re	16ff#\LL	-re	16d/	16a\	.
.	.	.	32dd\	.	32ff#\	.	.	.	.	.	.	.	.	.	.
.	.	.	32cc\	.	32ee\	.	16c\JJ	.	.	.	16ee\JJ	.	16a/JJ	16cc\JJ	.
.	.	.	32cc\JJJ	.	32ee\JJJ	.	.	.	.	.	.	.	.	.	.
!	!	!	!	!	!	!	!	!	!LO:LB:g=original	!	!	!	!	!	!
=97	=97	=97	=97	=97	=97	=97	=97	=97	=97	=97	=97	=97	=97	=97	=97
*	*	*	*tremolo	*	*tremolo	*	*	*	*	*	*	*	*	*	*
!	!	!	!LO:TX:t=P:problem:t. 97-98 - rytm	!	!LO:TX:t=P:problem:t. 97-98 - rytm	!	!	!	!	!	!	!	!	!	!
2ryy	.	.	32b\LLL	.	32dd\LLL	.	8B\	mi-	8G\	mi-	8dd\	mi-	8g\L	8b\L	.
.	.	.	32b\	.	32dd\	.	.	.	.	.	.	.	.	.	.
.	.	.	32b\	.	32dd\	.	.	.	.	.	.	.	.	.	.
.	.	.	32b\	.	32dd\JJJ	.	.	.	.	.	.	.	.	.	.
.	.	.	32b\	.	32gg\LLL	.	8B\	-ſe-	8d\	-se-	8gg\	-se-	8g\	8b\	.
.	.	.	32b\	.	32gg\	.	.	.	.	.	.	.	.	.	.
.	.	.	32b\	.	32gg\	.	.	.	.	.	.	.	.	.	.
.	.	.	32b\JJJ	.	32gg\JJJ	.	.	.	.	.	.	.	.	.	.
.	.	.	32cc\LLL	.	32ee\LLL	.	8c\	-re-	8A\	-re-	8ee\	-re-	8a\	8cc\	.
.	.	.	32cc\	.	32ee\	.	.	.	.	.	.	.	.	.	.
.	.	.	32cc\	.	32ee\	.	.	.	.	.	.	.	.	.	.
.	.	.	32cc\	.	32ee\JJJ	.	.	.	.	.	.	.	.	.	.
.	.	.	32cc\	.	32aa\LLL	.	8c\	-re	8e\	-re	8aa\	-re	8a\J	8cc\J	.
*	*	*	*	*	*	*	*	*Xij	*	*Xij	*	*Xij	*	*	*
.	.	.	32cc\	.	32aa\	.	.	.	.	.	.	.	.	.	.
.	.	.	32cc\	.	32aa\	.	.	.	.	.	.	.	.	.	.
.	.	.	32cc\JJJ	.	32aa\JJJ	.	.	.	.	.	.	.	.	.	.
!	!	!	!	!	!LO:LB:g=original	!	!	!	!	!	!	!	!	!	!
=98	=98	=98	=98	=98	=98	=98	=98	=98	=98	=98	=98	=98	=98	=98	=98
2ryy	.	.	32bLLL 32d/	.	32b\LLL	.	4d\	no-	4B\	no-	4gg\	no-	4g\	4b\	.
.	.	.	32b 32d/	.	32gg\	.	.	.	.	.	.	.	.	.	.
.	.	.	32b 32d/	.	32b\	.	.	.	.	.	.	.	.	.	.
.	.	.	32b 32d/	.	32gg\	.	.	.	.	.	.	.	.	.	.
.	.	.	32b 32d/	.	32b\	.	.	.	.	.	.	.	.	.	.
.	.	.	32b 32d/	.	32gg\	.	.	.	.	.	.	.	.	.	.
.	.	.	32b 32d/	.	32b\	.	.	.	.	.	.	.	.	.	.
.	.	.	32bJJJ 32d/	.	32gg\JJJ	.	.	.	.	.	.	.	.	.	.
.	.	.	32ccLLL 32d/	.	32a\LLL	.	4D\	.	4AT\	.	4ff#t\	.	4d\	4a\	.
.	.	.	32cc 32d/	.	32ff#\	.	.	.	.	.	.	.	.	.	.
.	.	.	32cc 32d/	.	32a\	.	.	.	.	.	.	.	.	.	.
.	.	.	32cc 32d/	.	32ff#\	.	.	.	.	.	.	.	.	.	.
.	.	.	32cc 32d/	.	32a\	.	.	.	.	.	.	.	.	.	.
.	.	.	32cc 32d/	.	32ff#\	.	.	.	.	.	.	.	.	.	.
.	.	.	32cc 32d/	.	32a\	.	.	.	.	.	.	.	.	.	.
.	.	.	32ccJJJ 32d/	.	32ff#\JJJ	.	.	.	.	.	.	.	.	.	.
*	*	*	*Xtremolo	*	*Xtremolo	*	*	*	*	*	*	*	*	*	*
=99	=99	=99	=99	=99	=99	=99	=99	=99	=99	=99	=99	=99	=99	=99	=99
2ryy	.	.	32bLLL 32d/	.	8gg 8b\	.	8G\	-bis	8B\	-bis	8gg\	-bis	8B/	8g\	p
.	.	.	32d/	.	.	.	.	.	.	.	.	.	.	.	.
.	.	.	32B/	.	.	.	.	.	.	.	.	.	.	.	.
.	.	.	32d/JJJ	.	.	.	.	.	.	.	.	.	.	.	.
.	.	.	32B/LLL	.	8r	.	8r	.	8r	.	8r	.	8r	8r	.
.	.	.	32d/	.	.	.	.	.	.	.	.	.	.	.	.
.	.	.	32B/	.	.	.	.	.	.	.	.	.	.	.	.
.	.	.	32d/JJJ	.	.	.	.	.	.	.	.	.	.	.	.
!	!	!	!	!	!LO:N:vis=16	!	!	!	!	!	!	!	!	!	!
.	.	.	16r	.	32r	.	4r	.	4r	.	4r	.	4a\	4cc\	.
.	.	.	.	.	32dd\LLL	p	.	.	.	.	.	.	.	.	.
.	.	.	16dLL 16c/	.	32cc#X\	.	.	.	.	.	.	.	.	.	.
.	.	.	.	.	32dd\JJJ	.	.	.	.	.	.	.	.	.	.
.	.	.	16f# 16c/	.	32ee\LLL	.	.	.	.	.	.	.	.	.	.
.	.	.	.	.	32dd\	.	.	.	.	.	.	.	.	.	.
.	.	.	16aJJ 16c/	.	32a\	.	.	.	.	.	.	.	.	.	.
!	!	!	!	!	!LO:SIC:v:o=32cc#\JJJ	!	!	!	!	!	!	!	!	!	!
.	.	.	.	.	32ccn\JJJ	.	.	.	.	.	.	.	.	.	.
=100	=100	=100	=100	=100	=100	=100	=100	=100	=100	=100	=100	=100	=100	=100	=100
!	!	!	!	!	!	!	!LO:N:vis=0	!	!LO:N:vis=0	!	!LO:N:vis=0	!	!	!	!
2ryy	.	.	32g/LLL	.	8b\	.	1r	.	1r	.	1r	.	8g\	8b\	.
.	.	.	32d/	.	.	.	.	.	.	.	.	.	.	.	.
.	.	.	32B/	.	.	.	.	.	.	.	.	.	.	.	.
.	.	.	32d/JJJ	.	.	.	.	.	.	.	.	.	.	.	.
.	.	.	32B/LLL	.	8r	.	.	.	.	.	.	.	8r	8r	.
.	.	.	32d/	.	.	.	.	.	.	.	.	.	.	.	.
.	.	.	32B/	.	.	.	.	.	.	.	.	.	.	.	.
.	.	.	32d/JJJ	.	.	.	.	.	.	.	.	.	.	.	.
!	!	!	!	!	!LO:N:vis=16	!	!	!	!	!	!	!	!	!	!
.	.	.	16r	.	32r	.	.	.	.	.	.	.	4d/	4a\	.
.	.	.	.	.	32dd\LLL	.	.	.	.	.	.	.	.	.	.
.	.	.	16dLL 16c/	.	32cc#X\	.	.	.	.	.	.	.	.	.	.
.	.	.	.	.	32dd\JJJ	.	.	.	.	.	.	.	.	.	.
.	.	.	16f# 16c/	.	32ee\LLL	.	.	.	.	.	.	.	.	.	.
.	.	.	.	.	32dd\	.	.	.	.	.	.	.	.	.	.
.	.	.	16aJJ 16c/	.	32f#\	.	.	.	.	.	.	.	.	.	.
.	.	.	.	.	32a\JJJ	.	.	.	.	.	.	.	.	.	.
!	!	!	!	!	!	!	!	!	!	!	!	!	!LO:LB:g=original	!	!
=101	=101	=101	=101	=101	=101	=101	=101	=101	=101	=101	=101	=101	=101	=101	=101
!	!	!	!	!	!	!	!	!	!	!	!	!	!LO:TX:t=P:problem:mixed beam	!	!
2ryy	.	.	8bL 8d 8G/	.	8g/L	f	.	.	.	.	.	.	8B/L	8g\L	.
.	.	.	8b 8d 8G/	.	8gg 8b 8d 8G/	.	.	.	.	.	.	.	8g\	8b\	.
.	.	.	8bJ 8d 8G/	.	8ggJ 8b 8d 8G/	.	.	.	.	.	.	.	8g\J	8b\J	.
.	.	.	8r	.	8r	.	.	.	.	.	.	.	8r	8r	.
!	!	!	!	!	!	!	!	!	!LO:TX:t=Sancta Maria Tacet	!	!	!	!LO:TX:t=Sancta Maria Tacet # Mater Christi Tacet	!LO:TX:t=Sancta\nMaria Ta=\ncet	!
==	==	==	==	==	==	==	==	==	==	==	==	==	==	==	==
*-	*-	*-	*-	*-	*-	*-	*-	*-	*-	*-	*-	*-	*-	*-	*-
!!!system-decoration: [(g1)][(g2)][(g3)]g4
!!!RDF**kern: > = above
!!!RDF**kern: < = below
!!!RDF**dynam: < = "cres", fontstyle="italic"
!!!RDF**dynam: p = "p.", fontstyle="bold-italic"
!!!RDF**dynam: f = "f.", fontstyle="bold-italic"
!!!ENC: Katarzyna Serwa
!!!END: 2021-11-27
!!!ENC: Andrzej Gręziak
!!!END: 2021-11-21
